;FLAVOR:Marlin
;TIME:13694
;Filament used: 10.164m
;Layer height: 0.2
;MINX:84.329
;MINY:86.829
;MINZ:0.24
;MAXX:150.665
;MAXY:148.162
;MAXZ:66.09
;Generated with Cura_SteamEngine 4.6.1
M140 S60
M105
M190 S60
M104 S200
M105
M109 S200
M82 ;absolute extrusion mode
; Ender 3 Custom Start G-code
G92 E0 ; Reset Extruder
G28 ; Home all axes
G1 Z2.0 F3000 ; Move Z Axis up little to prevent scratching of Heat Bed
G1 X0.1 Y20 Z0.3 F5000.0 ; Move to start position
G1 X0.1 Y200.0 Z0.3 F1500.0 E15 ; Draw the first line
G1 X0.4 Y200.0 Z0.3 F5000.0 ; Move to side a little
G1 X0.4 Y20 Z0.3 F1500.0 E30 ; Draw the second line
G92 E0 ; Reset Extruder
G1 Z2.0 F3000 ; Move Z Axis up little to prevent scratching of Heat Bed
G1 X5 Y20 Z0.3 F5000.0 ; Move over to prevent blob squish
G92 E0
G92 E0
G1 F1500 E-6.5
;LAYER_COUNT:325
;LAYER:-6
M107
G0 F9000 X89.902 Y91.957 Z0.24
;TYPE:SUPPORT-INTERFACE
G1 F1500 E0
G1 F1125 X90.145 Y91.731 E0.02649
G1 X90.835 Y91.139 E0.09906
G1 X91.337 Y90.751 E0.14971
G1 X91.589 Y90.57 E0.17448
G1 X92.075 Y90.241 E0.22132
G1 X92.321 Y90.086 E0.24453
G1 X93.036 Y89.67 E0.31056
G1 X93.157 Y89.606 E0.32149
G1 X93.665 Y89.349 E0.36694
G1 X93.925 Y89.226 E0.3899
G1 X94.478 Y88.986 E0.43802
G1 X94.798 Y88.86 E0.46547
G1 X95.4 Y88.645 E0.5165
G1 X95.697 Y88.55 E0.54139
G1 X96.54 Y88.318 E0.61118
G1 X97.109 Y88.19 E0.65774
G1 X97.473 Y88.123 E0.68728
G1 X98.048 Y88.033 E0.73374
G1 X98.376 Y87.994 E0.7601
G1 X98.987 Y87.938 E0.80908
G1 X99.277 Y87.922 E0.83227
G1 X100.057 Y87.9 E0.89455
G1 X144.018 Y87.901 E4.40371
G1 X144.454 Y87.922 E4.43855
G1 X144.654 Y87.948 E4.45465
G1 X145.276 Y88.057 E4.50506
G1 X145.451 Y88.096 E4.51937
G1 X145.605 Y88.145 E4.53227
G1 X146.233 Y88.374 E4.58563
G1 X146.369 Y88.431 E4.5974
G1 X146.533 Y88.516 E4.61215
G1 X147.073 Y88.828 E4.66193
G1 X147.203 Y88.912 E4.67429
G1 X147.332 Y89.011 E4.68727
G1 X147.84 Y89.436 E4.74014
G1 X147.957 Y89.543 E4.75279
G1 X148.055 Y89.65 E4.76437
G1 X148.484 Y90.162 E4.81769
G1 X148.592 Y90.303 E4.83187
G1 X148.675 Y90.432 E4.84412
G1 X148.984 Y90.967 E4.89343
G1 X149.069 Y91.13 E4.90811
G1 X149.126 Y91.267 E4.91995
G1 X149.352 Y91.885 E4.97248
G1 X149.404 Y92.049 E4.98621
G1 X149.443 Y92.224 E5.00053
G1 X149.552 Y92.846 E5.05093
G1 X149.579 Y93.051 E5.06744
G1 X149.584 Y93.132 E5.07392
G1 X149.6 Y93.543 E5.10675
G1 X149.599 Y106.518 E6.14247
G1 X149.579 Y106.942 E6.17635
G1 X149.552 Y107.154 E6.19341
G1 X149.443 Y107.776 E6.24382
G1 X149.404 Y107.951 E6.25813
G1 X149.357 Y108.1 E6.2706
G1 X149.127 Y108.731 E6.32421
G1 X149.069 Y108.869 E6.33616
G1 X148.986 Y109.029 E6.35055
G1 X148.675 Y109.567 E6.40016
G1 X148.588 Y109.703 E6.41304
G1 X148.484 Y109.838 E6.42665
G1 X148.064 Y110.34 E6.47889
G1 X147.957 Y110.457 E6.49155
G1 X147.84 Y110.564 E6.50421
G1 X147.338 Y110.984 E6.55645
G1 X147.203 Y111.088 E6.57006
G1 X147.067 Y111.175 E6.58294
G1 X146.533 Y111.484 E6.63219
G1 X146.369 Y111.569 E6.64694
G1 X146.233 Y111.626 E6.65871
G1 X145.6 Y111.857 E6.7125
G1 X145.46 Y111.902 E6.72423
G1 X145.264 Y111.945 E6.74025
G1 X144.644 Y112.053 E6.79049
G1 X144.384 Y112.083 E6.81138
G1 X143.95 Y112.099 E6.84605
G1 X127.534 Y112.099 E8.15644
G1 X126.866 Y112.141 E8.20987
G1 X126.195 Y112.27 E8.26441
G1 X125.546 Y112.483 E8.31894
G1 X124.929 Y112.775 E8.37343
G1 X124.354 Y113.143 E8.42792
G1 X123.83 Y113.581 E8.48244
G1 X123.366 Y114.081 E8.53689
G1 X122.967 Y114.637 E8.59152
G1 X122.643 Y115.237 E8.64595
G1 X122.397 Y115.873 E8.70038
G1 X122.233 Y116.537 E8.75498
G1 X122.154 Y117.215 E8.80946
G1 X122.161 Y117.898 E8.86399
G1 X122.254 Y118.574 E8.91846
G1 X122.432 Y119.233 E8.97295
G1 X122.692 Y119.864 E9.02742
G1 X123.029 Y120.459 E9.08201
G1 X123.439 Y121.005 E9.13651
G1 X123.913 Y121.496 E9.19099
G1 X124.447 Y121.921 E9.24547
G1 X125.03 Y122.278 E9.30004
G1 X125.652 Y122.556 E9.35442
G1 X126.306 Y122.755 E9.40899
G1 X126.977 Y122.869 E9.46332
G1 X127.536 Y122.899 E9.50801
G1 X144.018 Y122.901 E10.82367
G1 X144.454 Y122.922 E10.85851
G1 X144.654 Y122.948 E10.87461
G1 X145.276 Y123.057 E10.92502
G1 X145.451 Y123.096 E10.93933
G1 X145.605 Y123.145 E10.95223
G1 X146.233 Y123.374 E11.00559
G1 X146.369 Y123.431 E11.01736
G1 X146.533 Y123.516 E11.03211
G1 X147.067 Y123.825 E11.08136
G1 X147.203 Y123.912 E11.09424
G1 X147.338 Y124.016 E11.10785
G1 X147.84 Y124.436 E11.16009
G1 X147.957 Y124.543 E11.17275
G1 X148.064 Y124.66 E11.18541
G1 X148.484 Y125.162 E11.23765
G1 X148.588 Y125.297 E11.25126
G1 X148.675 Y125.433 E11.26414
G1 X148.984 Y125.967 E11.31339
G1 X149.069 Y126.13 E11.32807
G1 X149.126 Y126.267 E11.33991
G1 X149.357 Y126.9 E11.3937
G1 X149.409 Y127.062 E11.40728
G1 X149.436 Y127.175 E11.41655
G1 X149.519 Y127.589 E11.45026
G1 X149.554 Y127.834 E11.47001
G1 X149.583 Y128.176 E11.49741
G1 X149.6 Y128.658 E11.53591
G1 X149.599 Y141.513 E12.56205
G1 X149.58 Y141.939 E12.59609
G1 X149.552 Y142.154 E12.6134
G1 X149.443 Y142.776 E12.66381
G1 X149.404 Y142.951 E12.67812
G1 X149.357 Y143.1 E12.69059
G1 X149.127 Y143.731 E12.7442
G1 X149.073 Y143.861 E12.75544
G1 X148.986 Y144.028 E12.77047
G1 X148.675 Y144.566 E12.82007
G1 X148.59 Y144.701 E12.83281
G1 X148.484 Y144.838 E12.84664
G1 X148.064 Y145.34 E12.89888
G1 X147.957 Y145.457 E12.91154
G1 X147.84 Y145.564 E12.92419
G1 X147.338 Y145.984 E12.97644
G1 X147.203 Y146.088 E12.99004
G1 X147.067 Y146.175 E13.00293
G1 X146.533 Y146.484 E13.05218
G1 X146.369 Y146.569 E13.06693
G1 X146.233 Y146.626 E13.0787
G1 X145.605 Y146.855 E13.13206
G1 X145.451 Y146.904 E13.14496
G1 X145.276 Y146.943 E13.15927
G1 X144.654 Y147.052 E13.20967
G1 X144.368 Y147.084 E13.23265
G1 X143.953 Y147.1 E13.2658
G1 X99.913 Y147.098 E16.78126
G1 X99.186 Y147.074 E16.83933
G1 X98.874 Y147.053 E16.86429
G1 X98.275 Y146.996 E16.91232
G1 X98.001 Y146.96 E16.93438
G1 X97.361 Y146.857 E16.98612
G1 X97.129 Y146.814 E17.00496
G1 X96.284 Y146.618 E17.0742
G1 X95.579 Y146.413 E17.13281
G1 X95.298 Y146.32 E17.15643
G1 X94.736 Y146.116 E17.20416
G1 X94.478 Y146.014 E17.22631
G1 X93.912 Y145.769 E17.27554
G1 X93.621 Y145.63 E17.30128
G1 X93.036 Y145.33 E17.35376
G1 X92.796 Y145.195 E17.37574
G1 X92.282 Y144.89 E17.42345
G1 X92.027 Y144.728 E17.44756
G1 X91.263 Y144.195 E17.52193
G1 X90.759 Y143.801 E17.57299
G1 X90.54 Y143.617 E17.59582
G1 X90.091 Y143.22 E17.64367
G1 X89.902 Y143.043 E17.66434
G1 X89.451 Y142.592 E17.71525
G1 X89.231 Y142.355 E17.74106
G1 X88.639 Y141.665 E17.81363
G1 X88.251 Y141.163 E17.86428
G1 X88.066 Y140.905 E17.88962
G1 X87.74 Y140.423 E17.93607
G1 X87.587 Y140.18 E17.95899
G1 X87.267 Y139.638 E18.00924
G1 X87.095 Y139.322 E18.03795
G1 X86.835 Y138.807 E18.08401
G1 X86.732 Y138.588 E18.10332
G1 X86.477 Y138 E18.15448
G1 X86.347 Y137.666 E18.18309
G1 X86.144 Y137.095 E18.23147
G1 X86.05 Y136.803 E18.25596
G1 X85.884 Y136.22 E18.30434
G1 X85.82 Y135.968 E18.3251
G1 X85.686 Y135.373 E18.37378
G1 X85.62 Y135.009 E18.40331
G1 X85.535 Y134.47 E18.44687
G1 X85.492 Y134.108 E18.47597
G1 X85.438 Y133.513 E18.52366
G1 X85.422 Y133.223 E18.54684
G1 X85.4 Y132.447 E18.60881
G1 X85.402 Y102.413 E21.00626
G1 X85.426 Y101.686 E21.06432
G1 X85.448 Y101.359 E21.09048
G1 X85.504 Y100.778 E21.13707
G1 X85.535 Y100.53 E21.15702
G1 X85.645 Y99.847 E21.21225
G1 X85.69 Y99.61 E21.2315
G1 X85.882 Y98.784 E21.2992
G1 X86.087 Y98.079 E21.3578
G1 X86.18 Y97.797 E21.38151
G1 X86.383 Y97.239 E21.4289
G1 X86.481 Y96.99 E21.45026
G1 X86.726 Y96.425 E21.49942
G1 X86.853 Y96.155 E21.52324
G1 X87.17 Y95.536 E21.57875
G1 X87.314 Y95.279 E21.60227
G1 X87.594 Y94.807 E21.64608
G1 X87.766 Y94.536 E21.6717
G1 X88.133 Y94 E21.72355
G1 X88.319 Y93.746 E21.74868
G1 X88.695 Y93.264 E21.79748
G1 X88.878 Y93.046 E21.8202
G1 X89.276 Y92.595 E21.86822
G1 X89.457 Y92.402 E21.88934
G1 X89.902 Y91.957 E21.93957
G0 F9000 X89.6 Y92.259
G1 F1125 X89.6 Y142.741 E25.96926
G0 F9000 X91.2 Y144.145
G1 F1125 X91.2 Y90.856 E30.22302
G0 F9000 X92.8 Y89.807
G1 F1125 X92.8 Y145.197 E34.64449
G0 F9000 X94.4 Y145.98
G1 F1125 X94.4 Y89.019 E39.19137
G0 F9000 X96 Y88.466
G1 F1125 X96 Y146.535 E43.82668
G0 F9000 X97.6 Y146.895
G1 F1125 X97.6 Y88.103 E48.51972
G0 F9000 X99.2 Y87.926
G1 F1125 X99.2 Y147.074 E53.24117
G0 F9000 X100.8 Y147.098
G1 F1125 X100.8 Y87.901 E57.96653
G0 F9000 X102.4 Y87.901
G1 F1125 X102.4 Y147.098 E62.69189
G0 F9000 X104 Y147.098
G1 F1125 X104 Y87.901 E67.41725
G0 F9000 X105.6 Y87.901
G1 F1125 X105.6 Y147.098 E72.14261
G0 F9000 X107.2 Y147.098
G1 F1125 X107.2 Y87.901 E76.86797
G0 F9000 X108.8 Y87.901
G1 F1125 X108.8 Y147.098 E81.59333
G0 F9000 X110.4 Y147.098
G1 F1125 X110.4 Y87.901 E86.31869
G0 F9000 X112 Y87.901
G1 F1125 X112 Y147.098 E91.04405
G0 F9000 X113.6 Y147.098
G1 F1125 X113.6 Y87.901 E95.76941
G0 F9000 X115.2 Y87.901
G1 F1125 X115.2 Y147.098 E100.49477
G0 F9000 X116.8 Y147.098
G1 F1125 X116.8 Y87.901 E105.22013
G0 F9000 X118.4 Y87.901
G1 F1125 X118.4 Y147.098 E109.94549
G0 F9000 X120 Y147.098
G1 F1125 X120 Y87.901 E114.67085
G0 F9000 X121.6 Y87.901
G1 F1125 X121.6 Y147.098 E119.39621
G0 F9000 X123.2 Y147.099
G1 F1125 X123.2 Y120.687 E121.50453
G0 F9000 X124.8 Y122.138
G1 F1125 X124.8 Y147.099 E123.49703
G0 F9000 X126.4 Y147.099
G1 F1125 X126.4 Y122.771 E125.43899
G0 F9000 X128 Y122.9
G1 F1125 X128 Y147.099 E127.37066
G0 F9000 X129.6 Y147.099
G1 F1125 X129.6 Y122.9 E129.30233
G0 F9000 X131.2 Y122.9
G1 F1125 X131.2 Y147.099 E131.234
G0 F9000 X132.8 Y147.099
G1 F1125 X132.8 Y122.9 E133.16567
G0 F9000 X134.4 Y122.9
G1 F1125 X134.4 Y147.099 E135.09734
G0 F9000 X136 Y147.099
G1 F1125 X136 Y122.901 E137.02893
G0 F9000 X137.6 Y122.901
G1 F1125 X137.6 Y147.099 E138.96052
G0 F9000 X139.2 Y147.099
G1 F1125 X139.2 Y122.901 E140.8921
G0 F9000 X140.8 Y122.901
G1 F1125 X140.8 Y147.099 E142.82369
G0 F9000 X142.4 Y147.099
G1 F1125 X142.4 Y122.901 E144.75528
G0 F9000 X144 Y122.901
G1 F1125 X144 Y147.099 E146.68687
G0 F9000 X145.6 Y146.857
G1 F1125 X145.6 Y123.144 E148.57975
G0 F9000 X147.2 Y123.911
G1 F1125 X147.2 Y146.09 E150.35017
G0 F9000 X148.8 Y144.35
G1 F1125 X148.8 Y125.65 E151.84288
G1 F1500 E145.34288
G0 F9000 X149.461 Y124.687
G0 X145.919 Y112.873
G0 X145.6 Y111.857
G1 F1500 E151.84288
G1 F1125 X145.6 Y88.144 E153.73576
G0 F9000 X144 Y87.901
G1 F1125 X144 Y112.098 E155.66727
G0 F9000 X142.4 Y112.099
G1 F1125 X142.4 Y87.901 E157.59886
G0 F9000 X140.8 Y87.901
G1 F1125 X140.8 Y112.099 E159.53045
G0 F9000 X139.2 Y112.099
G1 F1125 X139.2 Y87.901 E161.46203
G0 F9000 X137.6 Y87.901
G1 F1125 X137.6 Y112.099 E163.39362
G0 F9000 X136 Y112.099
G1 F1125 X136 Y87.901 E165.32521
G0 F9000 X134.4 Y87.901
G1 F1125 X134.4 Y112.099 E167.2568
G0 F9000 X132.8 Y112.099
G1 F1125 X132.8 Y87.901 E169.18839
G0 F9000 X131.2 Y87.901
G1 F1125 X131.2 Y112.099 E171.11998
G0 F9000 X129.6 Y112.099
G1 F1125 X129.6 Y87.901 E173.05157
G0 F9000 X128 Y87.901
G1 F1125 X128 Y112.099 E174.98316
G0 F9000 X126.4 Y112.231
G1 F1125 X126.4 Y87.901 E176.92528
G0 F9000 X124.8 Y87.901
G1 F1125 X124.8 Y112.858 E178.91746
G0 F9000 X123.2 Y114.313
G1 F1125 X123.2 Y87.901 E181.02578
G1 F1500 E174.52578
G0 F9000 X123.2 Y86.835
G0 X144.566 Y86.863
G0 X145.951 Y87.138
G0 X146.83 Y87.494
G0 X147.628 Y87.92
G0 X147.2 Y88.911
G1 F1500 E181.02578
G1 F1125 X147.2 Y111.09 E182.7962
G0 F9000 X148.8 Y109.351
G1 F1125 X148.8 Y90.649 E184.28908
G1 F1500 E177.78908
G0 F9000 X149.58 Y89.872
G0 X148.71 Y88.789
G0 X147.628 Y87.92
G0 X146.611 Y87.379
G0 X145.49 Y87.014
G0 X144.053 Y86.837
G0 X100.488 Y86.829
G0 X98.153 Y86.947
G0 X96.008 Y87.355
G0 X94.077 Y88
G0 X92.261 Y88.884
G0 X90.621 Y89.957
G0 X89.157 Y91.197
G0 X88.059 Y92.395
G0 X87.269 Y93.378
G0 X88 Y94.194
G1 F1500 E184.28908
G1 F1125 X88 Y140.807 E188.00993
G0 F9000 X86.4 Y137.802
G1 F1125 X86.4 Y97.195 E191.25135
G1 F1500 E184.75135
G0 F300 X86.4 Y97.195 Z0.54
G0 F9000 X85.177 Y97.442
G0 X84.646 Y99.4
G0 X84.38 Y101.361
G0 X84.347 Y102.989
G0 X84.329 Y132.012
G0 X84.447 Y134.348
G0 X84.854 Y136.49
G0 X85.448 Y138.26
G0 X86.153 Y139.816
G0 X87.213 Y139.539
;TIME_ELAPSED:143.058100
;LAYER:-5
M140 S60
;TYPE:SUPPORT
G1 F1500 E191.25135
G1 F1125 X92.961 Y145.287 E192.06246
G1 X93.036 Y145.329 E192.07104
G1 X93.621 Y145.629 E192.13664
G1 X93.912 Y145.768 E192.16881
G1 X94.477 Y146.013 E192.23026
G1 X94.736 Y146.115 E192.25804
G1 X95.297 Y146.319 E192.3176
G1 X95.462 Y146.373 E192.33492
G1 X86.125 Y137.037 E193.6524
G1 X86.049 Y136.801 E193.67714
G1 X85.884 Y136.219 E193.7375
G1 X85.82 Y135.966 E193.76354
G1 X85.685 Y135.372 E193.82433
G1 X85.643 Y135.14 E193.84785
G1 X97.357 Y146.855 E195.50089
G0 F9000 X97.361 Y146.856
G1 F1125 X98 Y146.959 E195.56548
G1 X98.275 Y146.994 E195.59314
G1 X98.874 Y147.052 E195.65318
G1 X98.975 Y147.058 E195.66328
G1 X85.438 Y133.521 E197.5735
G1 X85.437 Y133.512 E197.5744
G1 X85.422 Y133.222 E197.60338
G1 X85.4 Y132.446 E197.68084
G1 X85.4 Y132.069 E197.71845
G1 X100.428 Y147.097 E199.83907
G1 X101.842 Y147.097 E199.98016
G1 X85.4 Y130.654 E202.30037
G1 X85.4 Y129.24 E202.44146
G1 X103.256 Y147.097 E204.96121
G1 X104.67 Y147.097 E205.10229
G1 X85.4 Y127.826 E207.82157
G1 X85.4 Y126.412 E207.96266
G1 X106.085 Y147.097 E210.88154
G1 X107.499 Y147.097 E211.02263
G1 X85.4 Y124.998 E214.14103
G1 X85.4 Y123.583 E214.28222
G1 X108.913 Y147.097 E217.60023
G1 X110.327 Y147.097 E217.74132
G1 X85.4 Y122.17 E221.25879
G1 X85.4 Y120.756 E221.39988
G1 X111.741 Y147.097 E225.11688
G1 X113.156 Y147.097 E225.25807
G1 X85.4 Y119.341 E229.17474
G1 X85.4 Y117.927 E229.31583
G1 X114.57 Y147.097 E233.43203
G1 X115.985 Y147.098 E233.57322
G1 X85.4 Y116.513 E237.8891
G1 X85.4 Y115.099 E238.03018
G1 X117.399 Y147.098 E242.54559
G1 X118.813 Y147.098 E242.68668
G1 X85.4 Y113.685 E247.40161
G1 X85.401 Y112.271 E247.5427
G1 X120.227 Y147.098 E252.4571
G1 X121.642 Y147.098 E252.59829
G1 X85.401 Y110.857 E257.71228
G1 X85.401 Y109.443 E257.85337
G1 X123.056 Y147.098 E263.1669
G1 X124.47 Y147.098 E263.30799
G1 X85.401 Y108.028 E268.82112
G1 X85.401 Y106.614 E268.96221
G1 X125.884 Y147.098 E274.67487
G1 X127.299 Y147.098 E274.81606
G1 X85.401 Y105.2 E280.72832
G1 X85.401 Y103.786 E280.86941
G1 X128.713 Y147.098 E286.9812
G1 X130.128 Y147.098 E287.12239
G1 X85.402 Y102.373 E293.43364
G1 X85.426 Y101.685 E293.50233
G1 X85.448 Y101.358 E293.53503
G1 X85.478 Y101.034 E293.5675
G1 X131.542 Y147.098 E300.06763
G1 X132.956 Y147.098 E300.20872
G1 X85.653 Y99.796 E306.88361
G1 X85.69 Y99.608 E306.90273
G1 X85.881 Y98.783 E306.98722
G1 X85.92 Y98.648 E307.00125
G1 X134.37 Y147.098 E313.83806
G1 X135.785 Y147.098 E313.97925
G1 X86.26 Y97.574 E320.9677
G1 X86.382 Y97.238 E321.00336
G1 X86.481 Y96.988 E321.03019
G1 X86.665 Y96.564 E321.07631
G1 X137.199 Y147.098 E328.20721
G1 X138.613 Y147.098 E328.34829
G1 X87.128 Y95.614 E335.61331
G1 X87.17 Y95.535 E335.62224
G1 X87.313 Y95.278 E335.65159
G1 X87.593 Y94.806 E335.70635
G1 X87.648 Y94.719 E335.71662
G1 X140.027 Y147.098 E343.10786
G1 X141.441 Y147.098 E343.24895
G1 X88.221 Y93.878 E350.75887
G1 X88.319 Y93.745 E350.77535
G1 X88.695 Y93.263 E350.83635
G1 X88.843 Y93.085 E350.85945
G1 X142.856 Y147.098 E358.48126
G1 X143.952 Y147.099 E358.59062
G1 X144.258 Y147.087 E358.62118
G1 X89.514 Y92.343 E366.34615
G1 X89.901 Y91.956 E366.40076
G1 X90.144 Y91.73 E366.43387
G1 X90.237 Y91.651 E366.44605
G1 X145.479 Y146.893 E374.24129
G1 X145.605 Y146.854 E374.25445
G1 X146.233 Y146.624 E374.32118
G1 X146.368 Y146.568 E374.33577
G1 X146.5 Y146.5 E374.35058
G1 X91.006 Y91.006 E382.18138
G1 X91.336 Y90.75 E382.22306
G1 X91.588 Y90.569 E382.25402
G1 X91.824 Y90.409 E382.28247
G1 X147.369 Y145.955 E390.12054
G1 X147.839 Y145.563 E390.1816
G1 X147.956 Y145.457 E390.19736
G1 X148.063 Y145.339 E390.21325
G1 X148.111 Y145.282 E390.22069
G1 X125.169 Y122.341 E393.45798
G1 X125.651 Y122.555 E393.5106
G1 X126.304 Y122.755 E393.57875
G1 X126.975 Y122.868 E393.64664
G1 X127.12 Y122.877 E393.66114
G1 X148.723 Y144.481 E396.70962
G1 X148.985 Y144.028 E396.76184
G1 X149.072 Y143.86 E396.78072
G1 X149.125 Y143.73 E396.79473
G1 X149.196 Y143.539 E396.81506
G1 X128.556 Y122.9 E399.72751
G1 X129.971 Y122.9 E399.8687
G1 X149.503 Y142.432 E402.62488
G1 X149.551 Y142.153 E402.65313
G1 X149.579 Y141.938 E402.67476
G1 X149.598 Y141.513 E402.71721
