;FLAVOR:Marlin
;TIME:18609
;Filament used: 13.9364m
;Layer height: 0.2
;MINX:54.17
;MINY:73.06
;MINZ:0.24
;MAXX:180.828
;MAXY:161.941
;MAXZ:16.09
;Generated with Cura_SteamEngine 4.6.1
M140 S60
M105
M190 S60
M104 S200
M105
M109 S200
M82 ;absolute extrusion mode
; Ender 3 Custom Start G-code
G92 E0 ; Reset Extruder
G28 ; Home all axes
G1 Z2.0 F3000 ; Move Z Axis up little to prevent scratching of Heat Bed
G1 X0.1 Y20 Z0.3 F5000.0 ; Move to start position
G1 X0.1 Y200.0 Z0.3 F1500.0 E15 ; Draw the first line
G1 X0.4 Y200.0 Z0.3 F5000.0 ; Move to side a little
G1 X0.4 Y20 Z0.3 F1500.0 E30 ; Draw the second line
G92 E0 ; Reset Extruder
G1 Z2.0 F3000 ; Move Z Axis up little to prevent scratching of Heat Bed
G1 X5 Y20 Z0.3 F5000.0 ; Move over to prevent blob squish
G92 E0
G92 E0
G1 F1500 E-6.5
;LAYER_COUNT:75
;LAYER:-6
M107
G0 F9000 X67.641 Y76.183 Z0.24
;TYPE:SUPPORT-INTERFACE
G1 F1500 E0
G1 F1125 X67.973 Y75.891 E0.03529
G1 X68.241 Y75.677 E0.06267
G1 X68.362 Y75.588 E0.07466
G1 X68.833 Y75.269 E0.12007
G1 X69.105 Y75.107 E0.14534
G1 X69.656 Y74.826 E0.19471
G1 X69.947 Y74.7 E0.22003
G1 X70.496 Y74.498 E0.26672
G1 X70.815 Y74.403 E0.29329
G1 X71.37 Y74.27 E0.33885
G1 X71.688 Y74.216 E0.3646
G1 X72.272 Y74.149 E0.41152
G1 X72.59 Y74.131 E0.43694
G1 X72.843 Y74.124 E0.45715
G1 X160.951 Y74.124 E7.49031
G1 X161.89 Y74.127 E7.56526
G1 X162.168 Y74.136 E7.58747
G1 X162.534 Y74.162 E7.61676
G1 X162.994 Y74.219 E7.65376
G1 X163.15 Y74.244 E7.66637
G1 X163.465 Y74.307 E7.69201
G1 X164.022 Y74.451 E7.73793
G1 X164.345 Y74.558 E7.76509
G1 X164.873 Y74.763 E7.81031
G1 X165.158 Y74.895 E7.83538
G1 X165.678 Y75.174 E7.88248
G1 X165.861 Y75.284 E7.89953
G1 X165.992 Y75.369 E7.91199
G1 X166.323 Y75.599 E7.94417
G1 X166.61 Y75.818 E7.97299
G1 X166.72 Y75.91 E7.98443
G1 X167.05 Y76.203 E8.01966
G1 X167.388 Y76.544 E8.05799
G1 X167.652 Y76.842 E8.08977
G1 X167.874 Y77.118 E8.11804
G1 X167.961 Y77.236 E8.12974
G1 X168.297 Y77.733 E8.17763
G1 X168.472 Y78.035 E8.20549
G1 X168.719 Y78.515 E8.24858
G1 X168.857 Y78.834 E8.27633
G1 X169.058 Y79.376 E8.32247
G1 X169.148 Y79.675 E8.3474
G1 X169.29 Y80.274 E8.39654
G1 X169.345 Y80.597 E8.42269
G1 X169.409 Y81.141 E8.46642
G1 X169.435 Y81.792 E8.51842
G1 X169.436 Y93.787 E9.47592
G1 X169.478 Y94.455 E9.52934
G1 X169.607 Y95.126 E9.58389
G1 X169.82 Y95.776 E9.63849
G1 X170.113 Y96.392 E9.69294
G1 X170.481 Y96.967 E9.74743
G1 X170.918 Y97.492 E9.80196
G1 X171.418 Y97.956 E9.85641
G1 X171.974 Y98.354 E9.91099
G1 X172.574 Y98.678 E9.96542
G1 X173.211 Y98.924 E10.01993
G1 X173.849 Y99.082 E10.0724
G1 X173.849 Y99.085 E10.07263
G1 X174.531 Y99.178 E10.12758
G1 X175.127 Y99.287 E10.17594
G1 X175.305 Y99.327 E10.19051
G1 X175.486 Y99.386 E10.2057
G1 X176.091 Y99.61 E10.2572
G1 X176.239 Y99.672 E10.27001
G1 X176.404 Y99.76 E10.28494
G1 X176.916 Y100.06 E10.33231
G1 X177.063 Y100.155 E10.34628
G1 X177.208 Y100.267 E10.3609
G1 X177.676 Y100.663 E10.40984
G1 X177.804 Y100.782 E10.42379
G1 X177.936 Y100.927 E10.43944
G1 X178.332 Y101.404 E10.48893
G1 X178.444 Y101.554 E10.50387
G1 X178.534 Y101.697 E10.51736
G1 X178.845 Y102.245 E10.56766
G1 X178.927 Y102.407 E10.58215
G1 X178.99 Y102.563 E10.59558
G1 X179.18 Y103.088 E10.64015
G1 X179.235 Y103.26 E10.65456
G1 X179.271 Y103.42 E10.66765
G1 X179.387 Y104.071 E10.72044
G1 X179.414 Y104.276 E10.73694
G1 X179.419 Y104.354 E10.74318
G1 X179.435 Y104.768 E10.77626
G1 X179.431 Y112.771 E11.41509
G1 X179.411 Y113.195 E11.44897
G1 X179.38 Y113.419 E11.46702
G1 X179.268 Y114.028 E11.51645
G1 X179.222 Y114.227 E11.53276
G1 X179.17 Y114.389 E11.54634
G1 X178.967 Y114.936 E11.59291
G1 X178.908 Y115.075 E11.60496
G1 X178.688 Y115.708 E11.65846
G1 X178.546 Y116.376 E11.71297
G1 X178.49 Y117.056 E11.76744
G1 X178.521 Y117.739 E11.82201
G1 X178.636 Y118.412 E11.87651
G1 X178.836 Y119.065 E11.93103
G1 X179.122 Y119.695 E11.98626
G1 X179.212 Y119.861 E12.00133
G1 X179.285 Y120.036 E12.01647
G1 X179.503 Y120.625 E12.0666
G1 X179.562 Y120.806 E12.0818
G1 X179.601 Y120.984 E12.09634
G1 X179.71 Y121.574 E12.14424
G1 X179.738 Y121.778 E12.16067
G1 X179.765 Y122.298 E12.20224
G1 X179.764 Y130.294 E12.84051
G1 X179.743 Y130.731 E12.87544
G1 X179.718 Y130.921 E12.89073
G1 X179.609 Y131.547 E12.94145
G1 X179.571 Y131.72 E12.95559
G1 X179.529 Y131.855 E12.96688
G1 X179.308 Y132.468 E13.01889
G1 X179.248 Y132.613 E13.03142
G1 X179.174 Y132.758 E13.04442
G1 X178.869 Y133.295 E13.09371
G1 X178.772 Y133.449 E13.10824
G1 X178.666 Y133.59 E13.12232
G1 X178.266 Y134.073 E13.17238
G1 X178.134 Y134.218 E13.18803
G1 X178.02 Y134.324 E13.20046
G1 X177.531 Y134.738 E13.25161
G1 X177.393 Y134.845 E13.26554
G1 X177.249 Y134.938 E13.27923
G1 X176.734 Y135.24 E13.32688
G1 X176.576 Y135.324 E13.34117
G1 X176.403 Y135.397 E13.35616
G1 X175.815 Y135.615 E13.40622
G1 X175.643 Y135.67 E13.42063
G1 X175.481 Y135.708 E13.43391
G1 X174.848 Y135.823 E13.48527
G1 X174.182 Y135.914 E13.53893
G1 X174.182 Y135.925 E13.5398
G1 X173.986 Y135.956 E13.55564
G1 X173.331 Y136.146 E13.61008
G1 X172.704 Y136.418 E13.66464
G1 X172.118 Y136.767 E13.71908
G1 X171.579 Y137.187 E13.77363
G1 X171.098 Y137.672 E13.82816
G1 X170.682 Y138.213 E13.88263
G1 X170.338 Y138.803 E13.93715
G1 X170.071 Y139.432 E13.99169
G1 X169.885 Y140.088 E14.04612
G1 X169.784 Y140.76 E14.10037
G1 X169.765 Y141.218 E14.13696
G1 X169.764 Y153.297 E15.10116
G1 X169.754 Y153.594 E15.12488
G1 X169.73 Y153.953 E15.1536
G1 X169.657 Y154.523 E15.19947
G1 X169.589 Y154.871 E15.22777
G1 X169.462 Y155.386 E15.27012
G1 X169.355 Y155.726 E15.29857
G1 X169.152 Y156.255 E15.3438
G1 X169.012 Y156.563 E15.3708
G1 X168.727 Y157.103 E15.41954
G1 X168.544 Y157.398 E15.44726
G1 X168.212 Y157.872 E15.49345
G1 X168.021 Y158.113 E15.518
G1 X167.645 Y158.535 E15.56311
G1 X167.388 Y158.789 E15.59196
G1 X166.947 Y159.177 E15.63885
G1 X166.672 Y159.388 E15.66651
G1 X166.329 Y159.626 E15.69984
G1 X165.919 Y159.877 E15.73821
G1 X165.418 Y160.139 E15.78334
G1 X165.202 Y160.238 E15.80231
G1 X165.091 Y160.283 E15.81187
G1 X164.531 Y160.492 E15.85959
G1 X164.225 Y160.585 E15.88512
G1 X163.68 Y160.719 E15.92992
G1 X163.346 Y160.778 E15.95699
G1 X162.744 Y160.85 E16.00539
G1 X162.109 Y160.875 E16.05611
G1 X161.281 Y160.876 E16.12221
G1 X73.173 Y160.876 E23.15537
G1 X72.874 Y160.867 E23.17925
G1 X72.482 Y160.84 E23.21061
G1 X72.028 Y160.786 E23.24711
G1 X71.705 Y160.73 E23.27328
G1 X71.559 Y160.699 E23.28519
G1 X71.171 Y160.604 E23.31708
G1 X70.827 Y160.503 E23.3457
G1 X70.691 Y160.456 E23.35718
G1 X70.173 Y160.257 E23.40148
G1 X69.856 Y160.112 E23.4293
G1 X69.346 Y159.843 E23.47533
G1 X69.044 Y159.655 E23.50373
G1 X68.691 Y159.412 E23.53794
G1 X68.558 Y159.314 E23.55112
G1 X68.314 Y159.118 E23.57611
G1 X67.898 Y158.747 E23.6206
G1 X67.744 Y158.595 E23.63787
G1 X67.646 Y158.491 E23.64928
G1 X67.368 Y158.181 E23.68252
G1 X67.254 Y158.045 E23.69668
G1 X67.057 Y157.788 E23.72253
G1 X66.709 Y157.277 E23.77188
G1 X66.552 Y157.008 E23.79674
G1 X66.294 Y156.51 E23.84152
G1 X66.161 Y156.211 E23.86764
G1 X65.951 Y155.648 E23.9156
G1 X65.85 Y155.312 E23.94361
G1 X65.715 Y154.746 E23.99006
G1 X65.662 Y154.444 E24.01453
G1 X65.591 Y153.838 E24.06324
G1 X65.575 Y153.561 E24.08539
G1 X65.565 Y153.136 E24.11932
G1 X65.565 Y141.213 E25.07107
G1 X65.523 Y140.545 E25.12449
G1 X65.394 Y139.874 E25.17904
G1 X65.181 Y139.225 E25.23356
G1 X64.889 Y138.608 E25.28805
G1 X64.521 Y138.033 E25.34254
G1 X64.083 Y137.509 E25.39706
G1 X63.583 Y137.045 E25.45151
G1 X63.027 Y136.646 E25.50614
G1 X62.427 Y136.322 E25.56057
G1 X61.791 Y136.076 E25.615
G1 X61.164 Y135.92 E25.66658
G1 X61.164 Y135.912 E25.66722
G1 X60.518 Y135.829 E25.71921
G1 X59.89 Y135.72 E25.77009
G1 X59.737 Y135.687 E25.78258
G1 X59.581 Y135.638 E25.79563
G1 X58.992 Y135.426 E25.8456
G1 X58.815 Y135.353 E25.86089
G1 X58.675 Y135.281 E25.87345
G1 X58.138 Y134.975 E25.92279
G1 X57.992 Y134.883 E25.93657
G1 X57.851 Y134.777 E25.95065
G1 X57.363 Y134.373 E26.00122
G1 X57.223 Y134.245 E26.01636
G1 X57.104 Y134.117 E26.03031
G1 X56.708 Y133.649 E26.07925
G1 X56.6 Y133.51 E26.0933
G1 X56.502 Y133.357 E26.1078
G1 X56.171 Y132.791 E26.16014
G1 X56.111 Y132.676 E26.1705
G1 X56.034 Y132.492 E26.18642
G1 X55.828 Y131.936 E26.23375
G1 X55.779 Y131.785 E26.24642
G1 X55.736 Y131.598 E26.26174
G1 X55.619 Y130.964 E26.3132
G1 X55.589 Y130.746 E26.33077
G1 X55.565 Y130.276 E26.36833
G1 X55.568 Y122.219 E27.01148
G1 X55.588 Y121.816 E27.04369
G1 X55.613 Y121.626 E27.05898
G1 X55.727 Y120.98 E27.11135
G1 X55.763 Y120.822 E27.12428
G1 X55.813 Y120.662 E27.13766
G1 X56.018 Y120.092 E27.18602
G1 X56.111 Y119.866 E27.20552
G1 X56.325 Y119.231 E27.25901
G1 X56.459 Y118.561 E27.31355
G1 X56.509 Y117.881 E27.36798
G1 X56.471 Y117.199 E27.42251
G1 X56.348 Y116.527 E27.47704
G1 X56.141 Y115.873 E27.5318
G1 X56.053 Y115.691 E27.54793
G1 X56.071 Y115.682 E27.54954
G1 X55.757 Y115.072 E27.60431
G1 X55.685 Y114.897 E27.61941
G1 X55.471 Y114.302 E27.66989
G1 X55.424 Y114.152 E27.68243
G1 X55.39 Y113.994 E27.69533
G1 X55.282 Y113.367 E27.74612
G1 X55.256 Y113.159 E27.76285
G1 X55.249 Y113.057 E27.77102
G1 X55.235 Y112.652 E27.80336
G1 X55.239 Y104.679 E28.4398
G1 X55.262 Y104.23 E28.47569
G1 X55.287 Y104.041 E28.49091
G1 X55.404 Y103.405 E28.54253
G1 X55.441 Y103.244 E28.55572
G1 X55.498 Y103.068 E28.57048
G1 X55.714 Y102.485 E28.62011
G1 X55.788 Y102.311 E28.63521
G1 X55.873 Y102.151 E28.64967
G1 X56.171 Y101.643 E28.69668
G1 X56.266 Y101.496 E28.71065
G1 X56.378 Y101.351 E28.72528
G1 X56.774 Y100.883 E28.77421
G1 X56.893 Y100.755 E28.78817
G1 X57.038 Y100.623 E28.80382
G1 X57.521 Y100.223 E28.85388
G1 X57.662 Y100.117 E28.86796
G1 X57.808 Y100.025 E28.88173
G1 X58.345 Y99.719 E28.93107
G1 X58.493 Y99.643 E28.94435
G1 X58.643 Y99.581 E28.95731
G1 X59.253 Y99.361 E29.00907
G1 X59.391 Y99.318 E29.02061
G1 X59.567 Y99.279 E29.035
G1 X60.188 Y99.171 E29.08531
G1 X60.912 Y99.076 E29.1436
G1 X60.909 Y99.059 E29.14498
G1 X61.013 Y99.042 E29.15339
G1 X61.669 Y98.852 E29.20791
G1 X62.296 Y98.58 E29.26246
G1 X62.882 Y98.231 E29.31691
G1 X63.421 Y97.811 E29.37145
G1 X63.902 Y97.326 E29.42598
G1 X64.318 Y96.785 E29.48046
G1 X64.662 Y96.195 E29.53497
G1 X64.929 Y95.566 E29.58952
G1 X65.115 Y94.91 E29.64395
G1 X65.216 Y94.238 E29.69819
G1 X65.235 Y93.78 E29.73478
G1 X65.238 Y81.657 E30.70249
G1 X65.262 Y81.155 E30.74261
G1 X65.276 Y81.005 E30.75464
G1 X65.349 Y80.449 E30.7994
G1 X65.417 Y80.104 E30.82747
G1 X65.56 Y79.546 E30.87345
G1 X65.669 Y79.213 E30.90142
G1 X65.88 Y78.673 E30.9477
G1 X66.016 Y78.383 E30.97327
G1 X66.285 Y77.88 E31.0188
G1 X66.387 Y77.71 E31.03463
G1 X66.493 Y77.548 E31.05008
G1 X66.71 Y77.235 E31.08048
G1 X66.929 Y76.948 E31.1093
G1 X67.021 Y76.838 E31.12075
G1 X67.415 Y76.403 E31.1676
G1 X67.641 Y76.183 E31.19277
G0 F9000 X67.2 Y76.64
G1 F1125 X67.2 Y157.974 E37.6852
G0 F9000 X68.8 Y159.487
G1 F1125 X68.8 Y75.291 E44.40609
G0 F9000 X70.4 Y74.533
G1 F1125 X70.4 Y160.344 E51.2559
G0 F9000 X72 Y160.781
G1 F1125 X72 Y74.18 E58.16876
G0 F9000 X73.6 Y74.124
G1 F1125 X73.6 Y160.876 E65.09368
G0 F9000 X75.2 Y160.876
G1 F1125 X75.2 Y74.124 E72.0186
G0 F9000 X76.8 Y74.124
G1 F1125 X76.8 Y160.876 E78.94352
G0 F9000 X78.4 Y160.876
G1 F1125 X78.4 Y74.124 E85.86844
G0 F9000 X80 Y74.124
G1 F1125 X80 Y160.876 E92.79336
G0 F9000 X81.6 Y160.876
G1 F1125 X81.6 Y74.124 E99.71828
G0 F9000 X83.2 Y74.124
G1 F1125 X83.2 Y160.876 E106.6432
G0 F9000 X84.8 Y160.876
G1 F1125 X84.8 Y74.124 E113.56812
G0 F9000 X86.4 Y74.124
G1 F1125 X86.4 Y160.876 E120.49304
G0 F9000 X88 Y160.876
G1 F1125 X88 Y74.124 E127.41796
G0 F9000 X89.6 Y74.124
G1 F1125 X89.6 Y160.876 E134.34288
G0 F9000 X91.2 Y160.876
G1 F1125 X91.2 Y74.124 E141.2678
G0 F9000 X92.8 Y74.124
G1 F1125 X92.8 Y160.876 E148.19272
G0 F9000 X94.4 Y160.876
G1 F1125 X94.4 Y74.124 E155.11764
G0 F9000 X96 Y74.124
G1 F1125 X96 Y160.876 E162.04256
G0 F9000 X97.6 Y160.876
G1 F1125 X97.6 Y74.124 E168.96748
G0 F9000 X99.2 Y74.124
G1 F1125 X99.2 Y160.876 E175.8924
G0 F9000 X100.8 Y160.876
G1 F1125 X100.8 Y74.124 E182.81732
G0 F9000 X102.4 Y74.124
G1 F1125 X102.4 Y160.876 E189.74224
G0 F9000 X104 Y160.876
G1 F1125 X104 Y74.124 E196.66716
G0 F9000 X105.6 Y74.124
G1 F1125 X105.6 Y160.876 E203.59208
G0 F9000 X107.2 Y160.876
G1 F1125 X107.2 Y74.124 E210.517
G0 F9000 X108.8 Y74.124
G1 F1125 X108.8 Y160.876 E217.44192
G0 F9000 X110.4 Y160.876
G1 F1125 X110.4 Y74.124 E224.36684
G0 F9000 X112 Y74.124
G1 F1125 X112 Y160.876 E231.29176
G0 F9000 X113.6 Y160.876
G1 F1125 X113.6 Y74.124 E238.21668
G0 F9000 X115.2 Y74.124
G1 F1125 X115.2 Y160.876 E245.1416
G0 F9000 X116.8 Y160.876
G1 F1125 X116.8 Y74.124 E252.06652
G0 F9000 X118.4 Y74.124
G1 F1125 X118.4 Y160.876 E258.99144
G0 F9000 X120 Y160.876
G1 F1125 X120 Y74.124 E265.91636
G0 F9000 X121.6 Y74.124
G1 F1125 X121.6 Y160.876 E272.84128
G0 F9000 X123.2 Y160.876
G1 F1125 X123.2 Y74.124 E279.7662
G0 F9000 X124.8 Y74.124
G1 F1125 X124.8 Y160.876 E286.69112
G0 F9000 X126.4 Y160.876
G1 F1125 X126.4 Y74.124 E293.61604
G0 F9000 X128 Y74.124
G1 F1125 X128 Y160.876 E300.54096
G0 F9000 X129.6 Y160.876
G1 F1125 X129.6 Y74.124 E307.46588
G0 F9000 X131.2 Y74.124
G1 F1125 X131.2 Y160.876 E314.39079
G0 F9000 X132.8 Y160.876
G1 F1125 X132.8 Y74.124 E321.31571
G0 F9000 X134.4 Y74.124
G1 F1125 X134.4 Y160.876 E328.24063
G0 F9000 X136 Y160.876
G1 F1125 X136 Y74.124 E335.16555
G0 F9000 X137.6 Y74.124
G1 F1125 X137.6 Y160.876 E342.09047
G0 F9000 X139.2 Y160.876
G1 F1125 X139.2 Y74.124 E349.01539
G0 F9000 X140.8 Y74.124
G1 F1125 X140.8 Y160.876 E355.94031
G0 F9000 X142.4 Y160.876
G1 F1125 X142.4 Y74.124 E362.86523
G0 F9000 X144 Y74.124
G1 F1125 X144 Y160.876 E369.79015
G0 F9000 X145.6 Y160.876
G1 F1125 X145.6 Y74.124 E376.71507
G0 F9000 X147.2 Y74.124
G1 F1125 X147.2 Y160.876 E383.63999
G0 F9000 X148.8 Y160.876
G1 F1125 X148.8 Y74.124 E390.56491
G0 F9000 X150.4 Y74.124
G1 F1125 X150.4 Y160.876 E397.48983
G0 F9000 X152 Y160.876
G1 F1125 X152 Y74.124 E404.41475
G0 F9000 X153.6 Y74.124
G1 F1125 X153.6 Y160.876 E411.33967
G0 F9000 X155.2 Y160.876
G1 F1125 X155.2 Y74.124 E418.26459
G0 F9000 X156.8 Y74.124
G1 F1125 X156.8 Y160.876 E425.18951
G0 F9000 X158.4 Y160.876
G1 F1125 X158.4 Y74.124 E432.11443
G0 F9000 X160 Y74.124
G1 F1125 X160 Y160.876 E439.03935
G0 F9000 X161.6 Y160.876
G1 F1125 X161.6 Y74.127 E445.96403
G0 F9000 X163.2 Y74.254
G1 F1125 X163.2 Y160.796 E452.87219
G0 F9000 X164.8 Y160.392
G1 F1125 X164.8 Y74.735 E459.7097
G0 F9000 X166.4 Y75.658
G1 F1125 X166.4 Y159.577 E466.40848
G0 F9000 X168 Y158.137
G1 F1125 X168 Y77.294 E472.86171
G1 F1500 E466.36171
G0 F9000 X169.108 Y77.027
G0 X169.845 Y78.437
G0 X170.295 Y79.886
G0 X170.471 Y81.275
G0 X170.537 Y94.321
G0 X169.6 Y95.09
G1 F1500 E472.86171
G1 F1125 X169.6 Y154.815 E477.62922
G1 F1500 E471.12922
G0 F9000 X170.729 Y154.551
G0 X171.904 Y138.372
G0 X171.2 Y137.57
G1 F1500 E477.62922
G1 F1125 X171.2 Y97.754 E480.80751
G0 F9000 X172.8 Y98.766
G1 F1125 X172.8 Y136.377 E483.80978
G0 F9000 X174.4 Y135.885
G1 F1125 X174.4 Y99.161 E486.74125
G0 F9000 X176 Y99.577
G1 F1125 X176 Y135.547 E489.61253
G0 F9000 X177.6 Y134.68
G1 F1125 X177.6 Y100.599 E492.33302
G0 F9000 X179.2 Y103.151
G1 F1125 X179.2 Y114.296 E493.22266
G1 F1500 E486.72266
G0 F9000 X179.954 Y115.335
G0 X180.072 Y119.214
G0 X179.2 Y119.839
G1 F1500 E493.22266
G1 F1125 X179.2 Y132.708 E494.24992
G1 F1500 E487.74992
G0 F9000 X180.107 Y133.272
G0 X169.961 Y157.044
G0 X169.171 Y158.363
G0 X168.104 Y159.577
G0 X166.914 Y160.516
G0 X165.478 Y161.275
G0 X164.037 Y161.729
G0 X162.46 Y161.931
G0 X72.541 Y161.913
G0 X71.322 Y161.736
G0 X69.881 Y161.289
G0 X68.458 Y160.544
G0 X67.249 Y159.598
G0 X66.196 Y158.415
G0 X65.402 Y157.109
G0 X64.823 Y155.589
G0 X64.602 Y154.398
G0 X63.31 Y138.244
G0 X64 Y137.431
G1 F1500 E494.24992
G1 F1125 X64 Y97.198 E497.4615
G0 F9000 X62.4 Y98.518
G1 F1125 X62.4 Y136.311 E500.4783
G0 F9000 X60.8 Y135.865
G1 F1125 X60.8 Y99.09 E503.41384
G0 F9000 X59.2 Y99.38
G1 F1125 X59.2 Y135.5 E506.29709
G0 F9000 X57.6 Y134.569
G1 F1125 X57.6 Y100.163 E509.04353
G0 F9000 X56 Y101.934
G1 F1125 X56 Y115.544 E510.12994
G1 F1500 E503.62994
G0 F9000 X55.147 Y116.263
G0 X55.115 Y119.489
G0 X56 Y120.142
