;FLAVOR:Marlin
;TIME:3365
;Filament used: 1.78753m
;Layer height: 0.2
;MINX:79.953
;MINY:79.953
;MINZ:0.2
;MAXX:155.053
;MAXY:155.045
;MAXZ:4
;Generated with Cura_SteamEngine 4.5.0
M140 S50
M105
M190 S50
M104 S200
M105
M109 S200
M82 ;absolute extrusion mode
; Ender 3 Custom Start G-code
G92 E0 ; Reset Extruder
G28 ; Home all axes
G1 Z2.0 F3000 ; Move Z Axis up little to prevent scratching of Heat Bed
G1 X0.1 Y20 Z0.3 F5000.0 ; Move to start position
G1 X0.1 Y200.0 Z0.3 F1500.0 E15 ; Draw the first line
G1 X0.4 Y200.0 Z0.3 F5000.0 ; Move to side a little
G1 X0.4 Y20 Z0.3 F1500.0 E30 ; Draw the second line
G92 E0 ; Reset Extruder
G1 Z2.0 F3000 ; Move Z Axis up little to prevent scratching of Heat Bed
G1 X5 Y20 Z0.3 F5000.0 ; Move over to prevent blob squish
G92 E0
G92 E0
G1 F2700 E-5
;LAYER_COUNT:20
;LAYER:0
M107
G0 F6000 X90.759 Y91.133 Z0.2
;TYPE:SKIRT
G1 F2700 E0
G1 F1200 X91.388 Y90.529 E0.029
G1 X91.642 Y90.304 E0.04029
G1 X92.008 Y89.994 E0.05624
G1 X94.699 Y87.812 E0.17147
G1 X95.561 Y87.083 E0.20902
G1 X96.302 Y86.509 E0.2402
G1 X97.381 Y85.834 E0.28253
G1 X98.287 Y85.34 E0.31685
G1 X100.688 Y84.072 E0.40716
G1 X101.894 Y83.401 E0.45306
G1 X102.92 Y82.898 E0.49107
G1 X103.126 Y82.81 E0.49852
G1 X104.434 Y82.347 E0.54467
G1 X105.215 Y82.124 E0.57168
G1 X108.922 Y80.981 E0.7007
G1 X110.284 Y80.654 E0.74729
G1 X110.624 Y80.595 E0.75877
G1 X111.604 Y80.47 E0.79163
G1 X112.209 Y80.42 E0.81182
G1 X114.844 Y80.167 E0.89986
G1 X116.143 Y80.023 E0.94333
G1 X117.111 Y79.959 E0.9756
G1 X117.385 Y79.953 E0.98471
G1 X118.729 Y80.005 E1.02945
G1 X121.104 Y80.269 E1.10893
G1 X122.667 Y80.41 E1.16112
G1 X123.476 Y80.476 E1.18812
G1 X124.818 Y80.669 E1.23322
G1 X125.02 Y80.711 E1.24008
G1 X126.094 Y80.992 E1.277
G1 X127.432 Y81.415 E1.32368
G1 X128.822 Y81.829 E1.37191
G1 X130.87 Y82.449 E1.44308
G1 X131.755 Y82.758 E1.47426
G1 X132.867 Y83.274 E1.51503
G1 X133.853 Y83.803 E1.55225
G1 X134.774 Y84.318 E1.58735
G1 X137.233 Y85.601 E1.6796
G1 X138.045 Y86.07 E1.71079
G1 X139.093 Y86.826 E1.75376
G1 X140.287 Y87.799 E1.80499
G1 X143.145 Y90.119 E1.92743
G1 X143.847 Y90.74 E1.9586
G1 X144.2 Y91.096 E1.97528
G1 X144.36 Y91.265 E1.98302
G1 X144.955 Y91.948 E2.01314
G1 X146.524 Y93.906 E2.0966
G1 X147.983 Y95.641 E2.17199
G1 X148.555 Y96.384 E2.20318
G1 X149.254 Y97.514 E2.24738
G1 X149.492 Y97.959 E2.26416
G1 X150.742 Y100.342 E2.35366
G1 X151.614 Y101.915 E2.41348
G1 X152.033 Y102.754 E2.44467
G1 X152.236 Y103.238 E2.46213
G1 X152.319 Y103.45 E2.4697
G1 X152.654 Y104.443 E2.50456
G1 X153.168 Y106.246 E2.56691
G1 X154.004 Y108.889 E2.65911
G1 X154.295 Y110.013 E2.69773
G1 X154.342 Y110.244 E2.70557
G1 X154.521 Y111.48 E2.74711
G1 X154.74 Y113.99 E2.83091
G1 X154.843 Y114.888 E2.86097
G1 X154.993 Y116.3 E2.9082
G1 X155.053 Y117.236 E2.9394
G1 X155.016 Y118.391 E2.97783
G1 X154.96 Y119.022 E2.9989
G1 X154.679 Y121.675 E3.08763
G1 X154.644 Y122.119 E3.10245
G1 X154.515 Y123.57 E3.1509
G1 X154.392 Y124.5 E3.1821
G1 X154.24 Y125.223 E3.20667
G1 X154.164 Y125.532 E3.21726
G1 X153.963 Y126.245 E3.24189
G1 X153.717 Y127.017 E3.26884
G1 X153.243 Y128.536 E3.32177
G1 X153.007 Y129.368 E3.35053
G1 X152.637 Y130.619 E3.39392
G1 X152.305 Y131.577 E3.42764
G1 X152.206 Y131.825 E3.43653
G1 X151.649 Y133.01 E3.48008
G1 X150.923 Y134.342 E3.53053
G1 X149.382 Y137.251 E3.64002
G1 X149.18 Y137.616 E3.6539
G1 X148.692 Y138.417 E3.68509
G1 X147.958 Y139.39 E3.72563
G1 X147.319 Y140.147 E3.75858
G1 X145.647 Y142.186 E3.84628
G1 X144.966 Y143.039 E3.88259
G1 X144.35 Y143.746 E3.91377
G1 X143.811 Y144.277 E3.93894
G1 X143.616 Y144.456 E3.94774
G1 X143.089 Y144.909 E3.97086
G1 X141.029 Y146.573 E4.05893
G1 X140.071 Y147.396 E4.10094
G1 X139.373 Y147.977 E4.13115
G1 X138.628 Y148.546 E4.16233
G1 X137.724 Y149.113 E4.19782
G1 X137.051 Y149.486 E4.22341
G1 X134.705 Y150.719 E4.31156
G1 X133.77 Y151.245 E4.34724
G1 X133.06 Y151.63 E4.3741
G1 X132.195 Y152.051 E4.4061
G1 X131.93 Y152.166 E4.41571
G1 X130.692 Y152.617 E4.45953
G1 X130.089 Y152.794 E4.48043
G1 X129.29 Y153.015 E4.50801
G1 X126.111 Y154.006 E4.61876
G1 X125.185 Y154.251 E4.65062
G1 X124.924 Y154.308 E4.6595
G1 X124 Y154.469 E4.6907
G1 X123.467 Y154.525 E4.70852
G1 X122.883 Y154.572 E4.72801
G1 X119.044 Y154.955 E4.85633
G1 X118.336 Y155.016 E4.87996
G1 X117.959 Y155.036 E4.89252
G1 X117.021 Y155.045 E4.92372
G1 X116.267 Y154.995 E4.94885
G1 X112.041 Y154.567 E5.09013
G1 X111.566 Y154.529 E5.10598
G1 X110.635 Y154.415 E5.13718
G1 X109.27 Y154.098 E5.18378
G1 X107.17 Y153.46 E5.25678
G1 X105.242 Y152.885 E5.3237
G1 X104.424 Y152.651 E5.352
G1 X103.535 Y152.355 E5.38316
G1 X102.62 Y151.959 E5.41632
G1 X102.229 Y151.768 E5.4308
G1 X101.698 Y151.49 E5.45073
G1 X101.507 Y151.384 E5.458
G1 X99.188 Y150.134 E5.54562
G1 X98.729 Y149.902 E5.56272
G1 X97.733 Y149.383 E5.60008
G1 X96.92 Y148.915 E5.63128
G1 X95.884 Y148.169 E5.67374
G1 X94.687 Y147.191 E5.72515
G1 X94.338 Y146.891 E5.74046
G1 X91.94 Y144.95 E5.84307
G1 X91.185 Y144.28 E5.87664
G1 X91.031 Y144.13 E5.88379
G1 X90.107 Y143.11 E5.92957
G1 X89.576 Y142.444 E5.9579
G1 X87.924 Y140.431 E6.04451
G1 X87.211 Y139.601 E6.08091
G1 X86.998 Y139.344 E6.09201
G1 X86.431 Y138.597 E6.1232
G1 X85.98 Y137.892 E6.15103
G1 X85.838 Y137.65 E6.16037
G1 X85.604 Y137.232 E6.1763
G1 X83.777 Y133.782 E6.30614
G1 X83.538 Y133.352 E6.32251
G1 X83.363 Y133.024 E6.33487
G1 X83.145 Y132.598 E6.35079
G1 X82.753 Y131.746 E6.38198
G1 X82.378 Y130.669 E6.41991
G1 X81.624 Y128.087 E6.50938
G1 X80.991 Y126.103 E6.57864
G1 X80.744 Y125.198 E6.60984
G1 X80.571 Y124.244 E6.64209
G1 X80.532 Y123.958 E6.65169
G1 X80.472 Y123.419 E6.66973
G1 X80.368 Y122.21 E6.71009
G1 X80.112 Y119.643 E6.79589
G1 X80.019 Y118.822 E6.82337
G1 X79.953 Y117.886 E6.85458
G1 X80 Y116.524 E6.89991
G1 X80.391 Y112.488 E7.03477
G1 X80.466 Y111.596 E7.06455
G1 X80.543 Y110.928 E7.08691
G1 X80.578 Y110.689 E7.09495
G1 X80.753 Y109.768 E7.12613
G1 X80.978 Y108.955 E7.15418
G1 X81.308 Y107.916 E7.19044
G1 X82.154 Y105.111 E7.28789
G1 X82.332 Y104.486 E7.3095
G1 X82.553 Y103.797 E7.33357
G1 X82.627 Y103.59 E7.34088
G1 X82.98 Y102.721 E7.37208
G1 X83.324 Y102.033 E7.39766
G1 X83.873 Y101.026 E7.43581
G1 X84.17 Y100.498 E7.45596
G1 X84.995 Y98.911 E7.51545
G1 X85.677 Y97.629 E7.56374
G1 X86.152 Y96.82 E7.59495
G1 X86.885 Y95.816 E7.63629
G1 X87.43 Y95.152 E7.66486
G1 X89.178 Y93.04 E7.75605
G1 X89.76 Y92.3 E7.78736
G1 X90.137 Y91.835 E7.80727
G1 X90.759 Y91.133 E7.83847
G0 F6000 X91.058 Y91.398
G1 F1200 X91.653 Y90.828 E7.86587
G1 X91.907 Y90.603 E7.87716
G1 X92.26 Y90.305 E7.89252
G1 X94.952 Y88.122 E8.0078
G1 X95.819 Y87.389 E8.04556
G1 X96.547 Y86.826 E8.07617
G1 X97.573 Y86.185 E8.11641
G1 X98.473 Y85.694 E8.15051
G1 X100.89 Y84.417 E8.24143
G1 X102.088 Y83.751 E8.28701
G1 X103.077 Y83.266 E8.32365
G1 X103.283 Y83.178 E8.3311
G1 X104.544 Y82.731 E8.3756
G1 X105.345 Y82.503 E8.4033
G1 X109.04 Y81.363 E8.53191
G1 X110.353 Y81.048 E8.57682
G1 X110.693 Y80.989 E8.5883
G1 X111.637 Y80.869 E8.61995
G1 X112.205 Y80.822 E8.63891
G1 X114.858 Y80.567 E8.72755
G1 X116.187 Y80.42 E8.77202
G1 X117.12 Y80.359 E8.80312
G1 X117.394 Y80.353 E8.81224
G1 X118.689 Y80.403 E8.85534
G1 X121.067 Y80.667 E8.93492
G1 X122.602 Y80.805 E8.98618
G1 X123.443 Y80.874 E9.01425
G1 X124.737 Y81.061 E9.05773
G1 X124.939 Y81.103 E9.06459
G1 X125.974 Y81.373 E9.10017
G1 X127.397 Y81.823 E9.14981
G1 X128.707 Y82.213 E9.19527
G1 X130.754 Y82.831 E9.26639
G1 X131.623 Y83.136 E9.29702
G1 X132.679 Y83.627 E9.33575
G1 X133.658 Y84.152 E9.3727
G1 X134.573 Y84.664 E9.40758
G1 X137.048 Y85.955 E9.50042
G1 X137.845 Y86.416 E9.53104
G1 X138.84 Y87.136 E9.57189
G1 X140.035 Y88.109 E9.62315
G1 X142.893 Y90.429 E9.74558
G1 X143.582 Y91.04 E9.77621
G1 X144.069 Y91.54 E9.79943
G1 X144.643 Y92.198 E9.82847
G1 X146.21 Y94.153 E9.9118
G1 X147.677 Y95.898 E9.98762
G1 X148.238 Y96.628 E10.01825
G1 X148.901 Y97.703 E10.06025
G1 X149.138 Y98.145 E10.07693
G1 X150.396 Y100.543 E10.167
G1 X151.264 Y102.109 E10.22655
G1 X151.675 Y102.932 E10.25715
G1 X151.946 Y103.596 E10.281
G1 X152.27 Y104.553 E10.31461
G1 X152.789 Y106.372 E10.37752
G1 X153.623 Y109.01 E10.46954
G1 X153.903 Y110.093 E10.50675
G1 X153.95 Y110.324 E10.51459
G1 X154.123 Y111.515 E10.55462
G1 X154.346 Y114.07 E10.63992
G1 X154.446 Y114.93 E10.66872
G1 X154.596 Y116.342 E10.71594
G1 X154.653 Y117.261 E10.74657
G1 X154.617 Y118.358 E10.78307
G1 X154.562 Y118.98 E10.80384
G1 X154.28 Y121.638 E10.89274
G1 X154.245 Y122.084 E10.90762
G1 X154.116 Y123.535 E10.95607
G1 X153.995 Y124.447 E10.98667
G1 X153.851 Y125.128 E11.00982
G1 X153.775 Y125.437 E11.02041
G1 X153.582 Y126.123 E11.04411
G1 X153.336 Y126.895 E11.07106
G1 X152.86 Y128.423 E11.12429
G1 X152.624 Y129.254 E11.15302
G1 X152.254 Y130.505 E11.19641
G1 X151.934 Y131.429 E11.22894
G1 X151.835 Y131.677 E11.23782
G1 X151.298 Y132.819 E11.27979
G1 X150.515 Y134.256 E11.33422
G1 X149.032 Y137.058 E11.43966
G1 X148.83 Y137.423 E11.45354
G1 X148.35 Y138.208 E11.48414
G1 X147.652 Y139.132 E11.52266
G1 X147.049 Y139.846 E11.55374
G1 X145.314 Y141.962 E11.64475
G1 X144.654 Y142.789 E11.67994
G1 X144.048 Y143.483 E11.71059
G1 X143.54 Y143.982 E11.73427
G1 X143.345 Y144.161 E11.74308
G1 X142.838 Y144.598 E11.76534
G1 X140.751 Y146.284 E11.85457
G1 X139.815 Y147.089 E11.89563
G1 X139.117 Y147.67 E11.92584
G1 X138.385 Y148.228 E11.95645
G1 X137.528 Y148.764 E11.99007
G1 X136.865 Y149.132 E12.01529
G1 X134.502 Y150.374 E12.10408
G1 X133.579 Y150.893 E12.1393
G1 X132.869 Y151.278 E12.16616
G1 X132.036 Y151.684 E12.19699
G1 X131.771 Y151.799 E12.20659
G1 X130.578 Y152.234 E12.24883
G1 X129.982 Y152.409 E12.26949
G1 X129.162 Y152.636 E12.29779
G1 X125.992 Y153.624 E12.40822
G1 X125.1 Y153.86 E12.43891
G1 X124.839 Y153.917 E12.4478
G1 X123.932 Y154.074 E12.47841
G1 X123.435 Y154.126 E12.49504
G1 X122.869 Y154.172 E12.51392
G1 X119.256 Y154.527 E12.63467
G1 X118.997 Y154.558 E12.64335
G1 X118.315 Y154.616 E12.66611
G1 X117.938 Y154.636 E12.67867
G1 X117.017 Y154.645 E12.7093
G1 X116.307 Y154.597 E12.73297
G1 X112.11 Y154.172 E12.87328
G1 X111.598 Y154.131 E12.89036
G1 X110.684 Y154.018 E12.92099
G1 X109.385 Y153.715 E12.96536
G1 X107.616 Y153.182 E13.02681
G1 X107.295 Y153.08 E13.03801
G1 X105.368 Y152.505 E13.10489
G1 X104.534 Y152.267 E13.13374
G1 X103.661 Y151.975 E13.16436
G1 X102.795 Y151.599 E13.19576
G1 X102.404 Y151.408 E13.21023
G1 X101.893 Y151.141 E13.22941
G1 X101.686 Y151.026 E13.23728
G1 X99.379 Y149.783 E13.32444
G1 X98.914 Y149.547 E13.34179
G1 X97.918 Y149.028 E13.37914
G1 X97.12 Y148.568 E13.40978
G1 X96.136 Y147.858 E13.45014
G1 X94.948 Y146.888 E13.50115
G1 X94.62 Y146.606 E13.51553
G1 X92.191 Y144.64 E13.61947
G1 X91.464 Y143.993 E13.65184
G1 X91.31 Y143.843 E13.65899
G1 X90.42 Y142.86 E13.70309
G1 X89.908 Y142.218 E13.73041
G1 X88.22 Y140.16 E13.81893
G1 X87.519 Y139.346 E13.85466
G1 X87.306 Y139.089 E13.86577
G1 X86.75 Y138.355 E13.89639
G1 X86.325 Y137.69 E13.92264
G1 X86.183 Y137.448 E13.93197
G1 X85.958 Y137.044 E13.94735
G1 X84.165 Y133.659 E14.07476
G1 X83.887 Y133.158 E14.09382
G1 X83.719 Y132.842 E14.10572
G1 X83.501 Y132.416 E14.12164
G1 X83.117 Y131.579 E14.15226
G1 X82.762 Y130.557 E14.18825
G1 X82.006 Y127.968 E14.27795
G1 X81.372 Y125.981 E14.34733
G1 X81.13 Y125.093 E14.37794
G1 X80.967 Y124.19 E14.40846
G1 X80.928 Y123.904 E14.41806
G1 X80.87 Y123.385 E14.43543
G1 X80.759 Y122.096 E14.47846
G1 X80.513 Y119.635 E14.56072
G1 X80.416 Y118.777 E14.58944
G1 X80.353 Y117.859 E14.62004
G1 X80.398 Y116.563 E14.66317
G1 X80.794 Y112.472 E14.79988
G1 X80.865 Y111.63 E14.82798
G1 X80.939 Y110.986 E14.84954
G1 X80.974 Y110.747 E14.85758
G1 X81.147 Y109.843 E14.88819
G1 X81.359 Y109.076 E14.91466
G1 X81.699 Y108.006 E14.952
G1 X82.542 Y105.21 E15.04913
G1 X82.717 Y104.596 E15.07036
G1 X82.93 Y103.932 E15.09356
G1 X83.004 Y103.725 E15.10087
G1 X83.351 Y102.872 E15.1315
G1 X83.675 Y102.225 E15.15556
G1 X84.222 Y101.223 E15.19353
G1 X84.51 Y100.712 E15.21304
G1 X85.348 Y99.099 E15.2735
G1 X86.03 Y97.817 E15.3218
G1 X86.497 Y97.023 E15.35243
G1 X87.195 Y96.07 E15.39172
G1 X87.74 Y95.406 E15.42029
G1 X89.481 Y93.302 E15.51112
G1 X90.071 Y92.552 E15.54286
G1 X90.448 Y92.087 E15.56277
G1 X91.058 Y91.398 E15.59338
G0 F6000 X91.358 Y91.664
G1 F1200 X91.919 Y91.128 E15.61919
G1 X92.173 Y90.903 E15.63047
G1 X92.511 Y90.616 E15.64522
G1 X95.204 Y88.432 E15.76054
G1 X96.077 Y87.694 E15.79856
G1 X96.792 Y87.142 E15.82861
G1 X97.765 Y86.536 E15.86673
G1 X98.66 Y86.048 E15.90064
G1 X101.057 Y84.782 E15.9908
G1 X102.283 Y84.1 E16.03746
G1 X103.234 Y83.634 E16.07268
G1 X103.44 Y83.546 E16.08014
G1 X104.653 Y83.116 E16.12294
G1 X105.445 Y82.891 E16.15032
G1 X109.158 Y81.745 E16.27957
G1 X110.421 Y81.442 E16.32277
G1 X110.761 Y81.383 E16.33424
G1 X111.669 Y81.267 E16.36469
G1 X112.285 Y81.216 E16.38525
G1 X114.936 Y80.961 E16.47383
G1 X116.231 Y80.818 E16.51716
G1 X117.129 Y80.758 E16.5471
G1 X117.403 Y80.752 E16.55621
G1 X118.649 Y80.801 E16.59769
G1 X121.031 Y81.065 E16.6774
G1 X122.641 Y81.21 E16.73116
G1 X123.41 Y81.273 E16.75682
G1 X124.655 Y81.453 E16.79866
G1 X124.857 Y81.495 E16.80553
G1 X125.853 Y81.755 E16.83976
G1 X127.215 Y82.185 E16.88727
G1 X128.593 Y82.596 E16.9351
G1 X130.638 Y83.214 E17.00615
G1 X131.491 Y83.514 E17.03622
G1 X132.491 Y83.98 E17.07292
G1 X133.463 Y84.501 E17.1096
G1 X134.399 Y85.024 E17.14526
G1 X136.863 Y86.31 E17.2377
G1 X137.644 Y86.763 E17.26773
G1 X138.587 Y87.446 E17.30646
G1 X139.782 Y88.42 E17.35774
G1 X142.64 Y90.74 E17.48017
G1 X143.619 Y91.646 E17.52454
G1 X143.779 Y91.815 E17.53228
G1 X144.331 Y92.449 E17.56024
G1 X145.878 Y94.379 E17.6425
G1 X147.371 Y96.155 E17.71967
G1 X147.921 Y96.872 E17.74973
G1 X148.549 Y97.892 E17.78957
G1 X148.784 Y98.331 E17.80613
G1 X150.048 Y100.741 E17.89664
G1 X150.914 Y102.303 E17.95605
G1 X151.316 Y103.111 E17.98606
G1 X151.491 Y103.529 E18.00113
G1 X151.574 Y103.741 E18.00871
G1 X151.885 Y104.662 E18.04104
G1 X152.411 Y106.506 E18.10482
G1 X153.241 Y109.131 E18.19638
G1 X153.511 Y110.172 E18.23215
G1 X153.558 Y110.403 E18.23999
G1 X153.724 Y111.55 E18.27854
G1 X153.945 Y114.08 E18.36301
G1 X154.048 Y114.972 E18.39288
G1 X154.198 Y116.384 E18.4401
G1 X154.253 Y117.286 E18.47016
G1 X154.219 Y118.324 E18.5047
G1 X154.164 Y118.938 E18.52521
G1 X153.882 Y121.599 E18.61421
G1 X153.847 Y122.048 E18.62919
G1 X153.718 Y123.499 E18.67764
G1 X153.598 Y124.394 E18.70767
G1 X153.463 Y125.032 E18.72936
G1 X153.387 Y125.341 E18.73994
G1 X153.201 Y126.002 E18.76278
G1 X152.955 Y126.774 E18.78973
G1 X152.476 Y128.309 E18.84321
G1 X152.24 Y129.141 E18.87198
G1 X151.87 Y130.392 E18.91537
G1 X151.562 Y131.281 E18.94666
G1 X151.463 Y131.529 E18.95554
G1 X150.947 Y132.627 E18.99589
G1 X150.184 Y134.028 E19.04895
G1 X148.682 Y136.864 E19.15569
G1 X148.48 Y137.229 E19.16957
G1 X148.009 Y137.999 E19.19959
G1 X147.347 Y138.873 E19.23605
G1 X146.714 Y139.622 E19.26867
G1 X145.012 Y141.699 E19.35798
G1 X144.341 Y142.539 E19.39374
G1 X143.747 Y143.219 E19.42377
G1 X143.27 Y143.687 E19.446
G1 X143.075 Y143.866 E19.4548
G1 X142.586 Y144.287 E19.47626
G1 X140.504 Y145.969 E19.56529
G1 X139.559 Y146.782 E19.60675
G1 X138.861 Y147.363 E19.63695
G1 X138.142 Y147.909 E19.66698
G1 X137.332 Y148.415 E19.69875
G1 X136.679 Y148.778 E19.7236
G1 X134.326 Y150.015 E19.81201
G1 X133.388 Y150.542 E19.8478
G1 X132.678 Y150.927 E19.87466
G1 X131.877 Y151.317 E19.90429
G1 X131.612 Y151.432 E19.9139
G1 X130.464 Y151.85 E19.95454
G1 X129.876 Y152.023 E19.97492
G1 X129.054 Y152.25 E20.00328
G1 X125.873 Y153.242 E20.11411
G1 X125.014 Y153.469 E20.14366
G1 X124.753 Y153.526 E20.15255
G1 X123.863 Y153.68 E20.18259
G1 X123.403 Y153.728 E20.19797
G1 X122.797 Y153.777 E20.21819
G1 X119.22 Y154.129 E20.33774
G1 X118.95 Y154.161 E20.34678
G1 X118.293 Y154.217 E20.36871
G1 X117.916 Y154.237 E20.38127
G1 X117.013 Y154.245 E20.4113
G1 X116.348 Y154.199 E20.43348
G1 X112.141 Y153.773 E20.57412
G1 X111.629 Y153.732 E20.5912
G1 X110.733 Y153.621 E20.62123
G1 X109.5 Y153.332 E20.66335
G1 X107.405 Y152.696 E20.73617
G1 X105.436 Y152.108 E20.80452
G1 X104.644 Y151.882 E20.83191
G1 X103.788 Y151.596 E20.86193
