;FLAVOR:Marlin
;TIME:1163
;Filament used: 0.861985m
;Layer height: 0.2
;MINX:95.016
;MINY:95.016
;MINZ:0.2
;MAXX:139.983
;MAXY:139.984
;MAXZ:8
;Generated with Cura_SteamEngine 4.5.0
M140 S50
M105
M190 S50
M104 S210
M105
M109 S210
M82 ;absolute extrusion mode
; Ender 3 Custom Start G-code
G92 E0 ; Reset Extruder
G28 ; Home all axes
G1 Z2.0 F3000 ; Move Z Axis up little to prevent scratching of Heat Bed
G1 X0.1 Y20 Z0.3 F5000.0 ; Move to start position
G1 X0.1 Y200.0 Z0.3 F1500.0 E15 ; Draw the first line
G1 X0.4 Y200.0 Z0.3 F5000.0 ; Move to side a little
G1 X0.4 Y20 Z0.3 F1500.0 E30 ; Draw the second line
G92 E0 ; Reset Extruder
G1 Z2.0 F3000 ; Move Z Axis up little to prevent scratching of Heat Bed
G1 X5 Y20 Z0.3 F5000.0 ; Move over to prevent blob squish
G92 E0
G92 E0
G1 F2700 E-5
;LAYER_COUNT:40
;LAYER:0
M107
G0 F6000 X101.72 Y101.471 Z0.2
;TYPE:SKIRT
G1 F2700 E0
G1 F1200 X102.213 Y101.002 E0.02263
G1 X102.487 Y100.757 E0.03486
G1 X103.088 Y100.241 E0.0612
G1 X103.525 Y99.884 E0.07997
G1 X104.066 Y99.467 E0.10269
G1 X104.34 Y99.267 E0.11397
G1 X104.749 Y98.979 E0.13061
G1 X105.047 Y98.776 E0.1426
G1 X105.428 Y98.526 E0.15776
G1 X105.998 Y98.172 E0.18008
G1 X106.608 Y97.827 E0.20339
G1 X107.425 Y97.399 E0.23406
G1 X108.103 Y97.073 E0.25908
G1 X108.749 Y96.789 E0.28255
G1 X109.379 Y96.531 E0.3052
G1 X109.78 Y96.38 E0.31945
G1 X110.719 Y96.059 E0.35245
G1 X111.141 Y95.932 E0.36711
G1 X111.536 Y95.822 E0.38075
G1 X111.926 Y95.721 E0.39415
G1 X112.753 Y95.523 E0.42243
G1 X113.467 Y95.377 E0.44667
G1 X113.919 Y95.3 E0.46192
G1 X114.283 Y95.244 E0.47417
G1 X114.599 Y95.201 E0.48478
G1 X114.953 Y95.159 E0.49663
G1 X115.457 Y95.107 E0.51349
G1 X115.83 Y95.075 E0.52594
G1 X116.135 Y95.054 E0.53611
G1 X116.526 Y95.034 E0.54913
G1 X116.887 Y95.022 E0.56114
G1 X117.252 Y95.016 E0.57328
G1 X117.747 Y95.016 E0.58975
G1 X118.11 Y95.022 E0.60182
G1 X118.871 Y95.054 E0.62716
G1 X119.174 Y95.075 E0.63726
G1 X119.54 Y95.107 E0.64948
G1 X120.045 Y95.159 E0.66636
G1 X120.419 Y95.204 E0.67889
G1 X120.862 Y95.265 E0.69376
G1 X121.485 Y95.365 E0.71475
G1 X121.942 Y95.451 E0.73022
G1 X122.202 Y95.506 E0.73906
G1 X122.536 Y95.582 E0.75045
G1 X123.113 Y95.723 E0.77021
G1 X123.744 Y95.893 E0.79194
G1 X124.399 Y96.094 E0.81473
G1 X124.696 Y96.194 E0.82515
G1 X125.221 Y96.38 E0.84368
G1 X125.601 Y96.523 E0.85718
G1 X125.876 Y96.632 E0.86702
G1 X126.202 Y96.767 E0.87876
G1 X126.762 Y97.01 E0.89906
G1 X127.364 Y97.289 E0.92113
G1 X127.648 Y97.429 E0.93166
G1 X127.973 Y97.595 E0.9438
G1 X128.427 Y97.84 E0.96096
G1 X129.015 Y98.181 E0.98356
G1 X129.363 Y98.392 E0.9971
G1 X129.742 Y98.632 E1.01202
G1 X129.953 Y98.772 E1.02044
G1 X130.221 Y98.956 E1.03125
G1 X130.914 Y99.452 E1.0596
G1 X131.128 Y99.613 E1.06851
G1 X131.441 Y99.858 E1.08173
G1 X131.858 Y100.196 E1.09958
G1 X132.177 Y100.464 E1.11344
G1 X132.75 Y100.972 E1.13891
G1 X133.041 Y101.243 E1.15213
G1 X133.305 Y101.497 E1.16432
G1 X133.529 Y101.72 E1.17483
G1 X133.998 Y102.213 E1.19746
G1 X134.243 Y102.487 E1.20969
G1 X134.759 Y103.088 E1.23603
G1 X135.116 Y103.525 E1.2548
G1 X135.533 Y104.066 E1.27752
G1 X135.726 Y104.33 E1.2884
G1 X136.009 Y104.731 E1.30472
G1 X136.215 Y105.034 E1.31691
G1 X136.464 Y105.413 E1.33199
G1 X136.671 Y105.74 E1.34486
G1 X136.829 Y106 E1.35498
G1 X137.173 Y106.608 E1.37822
G1 X137.601 Y107.425 E1.40889
G1 X137.927 Y108.103 E1.43391
G1 X138.211 Y108.749 E1.45738
G1 X138.469 Y109.379 E1.48003
G1 X138.617 Y109.772 E1.49399
G1 X138.77 Y110.203 E1.50921
G1 X138.946 Y110.734 E1.52781
G1 X139.066 Y111.134 E1.5417
G1 X139.176 Y111.528 E1.55531
G1 X139.279 Y111.925 E1.56895
G1 X139.477 Y112.752 E1.59723
G1 X139.623 Y113.47 E1.6216
G1 X139.7 Y113.923 E1.63689
G1 X139.755 Y114.278 E1.64883
G1 X139.798 Y114.593 E1.65941
G1 X139.841 Y114.954 E1.6715
G1 X139.893 Y115.459 E1.68838
G1 X139.925 Y115.828 E1.7007
G1 X139.946 Y116.132 E1.71084
G1 X139.966 Y116.532 E1.72416
G1 X139.977 Y116.87 E1.73541
G1 X139.983 Y117.228 E1.74732
G1 X139.983 Y117.892 E1.7694
G1 X139.968 Y118.467 E1.78853
G1 X139.946 Y118.887 E1.80252
G1 X139.904 Y119.433 E1.82073
G1 X139.842 Y120.038 E1.84096
G1 X139.798 Y120.407 E1.85332
G1 X139.738 Y120.846 E1.86806
G1 X139.634 Y121.495 E1.88992
G1 X139.549 Y121.941 E1.90502
G1 X139.494 Y122.201 E1.91386
G1 X139.415 Y122.544 E1.92557
G1 X139.2 Y123.406 E1.95512
G1 X139.116 Y123.713 E1.9657
G1 X138.912 Y124.382 E1.98896
G1 X138.802 Y124.707 E2.00038
G1 X138.615 Y125.233 E2.01894
G1 X138.477 Y125.601 E2.03202
G1 X138.368 Y125.876 E2.04185
G1 X138.236 Y126.195 E2.05334
G1 X137.993 Y126.756 E2.07367
G1 X137.828 Y127.119 E2.08693
G1 X137.57 Y127.65 E2.10657
G1 X137.409 Y127.965 E2.11833
G1 X137.173 Y128.402 E2.13485
G1 X136.819 Y129.015 E2.1584
G1 X136.608 Y129.363 E2.17193
G1 X136.375 Y129.731 E2.18642
G1 X136.236 Y129.941 E2.1948
G1 X136.042 Y130.224 E2.20621
G1 X135.737 Y130.655 E2.22377
G1 X135.372 Y131.147 E2.24415
G1 X135.138 Y131.446 E2.25677
G1 X134.802 Y131.86 E2.27451
G1 X134.546 Y132.164 E2.28773
G1 X134.263 Y132.488 E2.30203
G1 X134.027 Y132.75 E2.31376
G1 X133.755 Y133.042 E2.32704
G1 X133.502 Y133.305 E2.33917
G1 X133.28 Y133.528 E2.34964
G1 X132.788 Y133.996 E2.37222
G1 X132.512 Y134.243 E2.38454
G1 X131.919 Y134.753 E2.41056
G1 X131.484 Y135.109 E2.42925
G1 X130.942 Y135.528 E2.45204
G1 X130.674 Y135.723 E2.46306
G1 X130.272 Y136.007 E2.47943
G1 X129.97 Y136.213 E2.49159
G1 X129.593 Y136.461 E2.5066
G1 X129.261 Y136.671 E2.51967
G1 X129.001 Y136.829 E2.52978
G1 X128.388 Y137.175 E2.5532
G1 X127.57 Y137.603 E2.5839
G1 X126.904 Y137.924 E2.60849
G1 X126.257 Y138.209 E2.63201
G1 X125.633 Y138.465 E2.65444
G1 X125.199 Y138.628 E2.66986
G1 X124.474 Y138.879 E2.69538
G1 X124.265 Y138.946 E2.70268
G1 X123.872 Y139.064 E2.71633
G1 X123.479 Y139.174 E2.7299
G1 X123.072 Y139.279 E2.74388
G1 X122.244 Y139.477 E2.77219
G1 X121.533 Y139.623 E2.79634
G1 X121.081 Y139.7 E2.81159
G1 X120.717 Y139.756 E2.82384
G1 X120.401 Y139.799 E2.83444
G1 X120.047 Y139.841 E2.8463
G1 X119.543 Y139.893 E2.86315
G1 X119.17 Y139.925 E2.8756
G1 X118.865 Y139.946 E2.88577
G1 X118.474 Y139.966 E2.89879
G1 X118.113 Y139.978 E2.91081
G1 X117.748 Y139.984 E2.92295
G1 X117.253 Y139.984 E2.93941
G1 X116.89 Y139.978 E2.95149
G1 X116.527 Y139.966 E2.96357
G1 X116.129 Y139.946 E2.97682
G1 X115.826 Y139.925 E2.98692
G1 X115.46 Y139.893 E2.99914
G1 X114.955 Y139.841 E3.01603
G1 X114.581 Y139.796 E3.02856
G1 X114.138 Y139.735 E3.04343
G1 X113.515 Y139.635 E3.06442
G1 X113.058 Y139.549 E3.07988
G1 X112.798 Y139.494 E3.08872
G1 X112.464 Y139.418 E3.10012
G1 X111.887 Y139.277 E3.11987
G1 X111.256 Y139.107 E3.14161
G1 X110.601 Y138.906 E3.16439
G1 X110.304 Y138.806 E3.17482
G1 X109.779 Y138.62 E3.19334
G1 X109.399 Y138.477 E3.20685
G1 X109.124 Y138.368 E3.21669
G1 X108.796 Y138.232 E3.2285
G1 X108.234 Y137.988 E3.24887
G1 X107.637 Y137.711 E3.27076
G1 X107.352 Y137.571 E3.28132
G1 X107.027 Y137.405 E3.29346
G1 X106.573 Y137.16 E3.31062
G1 X105.985 Y136.819 E3.33323
G1 X105.637 Y136.608 E3.34676
G1 X105.258 Y136.368 E3.36168
G1 X105.047 Y136.228 E3.37011
G1 X104.775 Y136.041 E3.38109
G1 X104.078 Y135.542 E3.4096
G1 X103.863 Y135.38 E3.41855
G1 X103.552 Y135.137 E3.43168
G1 X103.133 Y134.797 E3.44962
G1 X102.826 Y134.538 E3.46298
G1 X102.509 Y134.261 E3.47698
G1 X102.249 Y134.027 E3.48862
G1 X101.957 Y133.755 E3.50189
G1 X101.694 Y133.502 E3.51403
G1 X101.471 Y133.28 E3.5245
G1 X101.003 Y132.788 E3.54708
G1 X100.754 Y132.511 E3.55947
G1 X100.452 Y132.163 E3.57479
G1 X100.243 Y131.914 E3.58561
G1 X99.885 Y131.476 E3.60442
G1 X99.597 Y131.108 E3.61996
G1 X99.271 Y130.666 E3.63823
G1 X98.992 Y130.271 E3.65431
G1 X98.78 Y129.959 E3.66686
G1 X98.532 Y129.581 E3.6819
G1 X98.329 Y129.26 E3.69453
G1 X98.171 Y129 E3.70465
G1 X97.827 Y128.392 E3.72788
G1 X97.399 Y127.575 E3.75856
G1 X97.073 Y126.897 E3.78358
G1 X96.789 Y126.251 E3.80705
G1 X96.531 Y125.621 E3.8297
G1 X96.38 Y125.22 E3.84395
G1 X96.059 Y124.281 E3.87695
G1 X95.932 Y123.859 E3.89161
G1 X95.822 Y123.464 E3.90525
G1 X95.721 Y123.074 E3.91865
G1 X95.523 Y122.247 E3.94693
G1 X95.377 Y121.533 E3.97117
G1 X95.3 Y121.081 E3.98642
G1 X95.244 Y120.717 E3.99867
G1 X95.201 Y120.401 E4.00928
G1 X95.158 Y120.04 E4.02137
G1 X95.106 Y119.533 E4.03832
G1 X95.074 Y119.15 E4.0511
G1 X95.053 Y118.838 E4.0615
G1 X95.034 Y118.475 E4.07359
G1 X95.022 Y118.124 E4.08527
G1 X95.016 Y117.748 E4.09778
G1 X95.016 Y117.253 E4.11425
G1 X95.022 Y116.89 E4.12632
G1 X95.034 Y116.527 E4.1384
G1 X95.054 Y116.129 E4.15165
G1 X95.075 Y115.826 E4.16176
G1 X95.107 Y115.46 E4.17398
G1 X95.159 Y114.955 E4.19086
G1 X95.204 Y114.581 E4.20339
G1 X95.316 Y113.804 E4.2295
G1 X95.371 Y113.479 E4.24046
G1 X95.459 Y113.018 E4.25607
G1 X95.582 Y112.464 E4.27495
G1 X95.723 Y111.887 E4.2947
G1 X95.893 Y111.256 E4.31644
G1 X96.094 Y110.601 E4.33923
G1 X96.194 Y110.304 E4.34965
G1 X96.38 Y109.779 E4.36818
G1 X96.523 Y109.399 E4.38168
G1 X96.632 Y109.124 E4.39152
G1 X96.771 Y108.788 E4.40361
G1 X97.019 Y108.218 E4.42429
G1 X97.285 Y107.644 E4.44533
G1 X97.588 Y107.04 E4.4678
G1 X97.844 Y106.566 E4.48572
G1 X98.181 Y105.985 E4.50806
G1 X98.392 Y105.637 E4.5216
G1 X98.632 Y105.258 E4.53652
G1 X98.772 Y105.047 E4.54494
G1 X98.956 Y104.779 E4.55575
G1 X99.452 Y104.086 E4.5841
G1 X99.613 Y103.872 E4.593
G1 X99.863 Y103.552 E4.60651
G1 X100.204 Y103.132 E4.6245
G1 X100.462 Y102.825 E4.63784
G1 X100.74 Y102.507 E4.65189
G1 X100.972 Y102.25 E4.66341
G1 X101.243 Y101.959 E4.67663
G1 X101.497 Y101.695 E4.68882
G1 X101.72 Y101.471 E4.69933
G0 F6000 X102.004 Y101.753
G1 F1200 X102.485 Y101.295 E4.72142
G1 X102.749 Y101.059 E4.7332
G1 X103.341 Y100.551 E4.75914
G1 X103.778 Y100.194 E4.77791
G1 X104.306 Y99.786 E4.80011
G1 X104.57 Y99.594 E4.81096
G1 X104.979 Y99.306 E4.8276
G1 X105.267 Y99.111 E4.83917
G1 X105.648 Y98.861 E4.85432
G1 X105.956 Y98.666 E4.86645
G1 X106.206 Y98.514 E4.87618
G1 X106.794 Y98.181 E4.89866
G1 X107.611 Y97.753 E4.92933
G1 X108.264 Y97.439 E4.95343
G1 X108.91 Y97.155 E4.9769
G1 X109.528 Y96.902 E4.99911
G1 X109.913 Y96.757 E5.0128
G1 X110.345 Y96.604 E5.02804
G1 X110.842 Y96.44 E5.04545
G1 X111.248 Y96.318 E5.05955
G1 X111.643 Y96.208 E5.07318
G1 X112.019 Y96.11 E5.08611
G1 X112.846 Y95.912 E5.11439
G1 X113.534 Y95.772 E5.13774
G1 X113.986 Y95.695 E5.15299
G1 X114.337 Y95.641 E5.16481
G1 X114.653 Y95.598 E5.17541
G1 X114.994 Y95.557 E5.18684
G1 X115.498 Y95.505 E5.20369
G1 X115.858 Y95.474 E5.21571
G1 X116.163 Y95.453 E5.22587
G1 X116.539 Y95.434 E5.2384
G1 X116.9 Y95.422 E5.25041
G1 X117.252 Y95.416 E5.26212
G1 X117.747 Y95.416 E5.27858
G1 X118.097 Y95.422 E5.29023
G1 X118.843 Y95.453 E5.31506
G1 X119.146 Y95.474 E5.32516
G1 X119.499 Y95.505 E5.33695
G1 X120.004 Y95.557 E5.35383
G1 X120.364 Y95.6 E5.36589
G1 X121.115 Y95.708 E5.39113
G1 X121.419 Y95.759 E5.40138
G1 X121.859 Y95.842 E5.41627
G1 X122.119 Y95.897 E5.42511
G1 X122.441 Y95.971 E5.4361
G1 X123.33 Y96.193 E5.46657
G1 X123.637 Y96.278 E5.47717
G1 X124.276 Y96.474 E5.4994
G1 X124.563 Y96.572 E5.50949
G1 X125.088 Y96.758 E5.52801
G1 X125.454 Y96.895 E5.54101
G1 X125.729 Y97.004 E5.55085
G1 X126.043 Y97.134 E5.56215
G1 X126.603 Y97.377 E5.58246
G1 X127.193 Y97.651 E5.60409
G1 X127.466 Y97.785 E5.61421
G1 X127.791 Y97.951 E5.62635
G1 X128.228 Y98.188 E5.64288
G1 X128.808 Y98.523 E5.66516
G1 X129.156 Y98.734 E5.67869
G1 X129.52 Y98.965 E5.69303
G1 X129.731 Y99.105 E5.70145
G1 X129.99 Y99.283 E5.71191
G1 X130.674 Y99.772 E5.73987
G1 X130.888 Y99.933 E5.74878
G1 X131.19 Y100.168 E5.76151
G1 X131.607 Y100.506 E5.77936
G1 X131.914 Y100.765 E5.79272
G1 X132.235 Y101.046 E5.80691
G1 X132.477 Y101.265 E5.81776
G1 X132.768 Y101.536 E5.83099
G1 X133.023 Y101.781 E5.84275
G1 X133.247 Y102.004 E5.85326
G1 X133.705 Y102.485 E5.87536
G1 X133.941 Y102.749 E5.88713
G1 X134.449 Y103.341 E5.91308
G1 X134.806 Y103.778 E5.93185
G1 X135.214 Y104.306 E5.95404
G1 X135.399 Y104.561 E5.96452
G1 X135.682 Y104.962 E5.98084
G1 X135.881 Y105.254 E5.9926
G1 X136.13 Y105.633 E6.00768
G1 X136.33 Y105.948 E6.02009
G1 X136.488 Y106.208 E6.03021
G1 X136.819 Y106.794 E6.05259
G1 X137.247 Y107.611 E6.08327
G1 X137.561 Y108.264 E6.10737
G1 X137.845 Y108.91 E6.13084
G1 X138.098 Y109.528 E6.15305
G1 X138.24 Y109.906 E6.16648
G1 X138.498 Y110.647 E6.19258
G1 X138.565 Y110.856 E6.19988
G1 X138.681 Y111.242 E6.21328
G1 X138.791 Y111.636 E6.22689
G1 X138.89 Y112.018 E6.24001
G1 X139.088 Y112.845 E6.2683
G1 X139.229 Y113.537 E6.29179
G1 X139.306 Y113.99 E6.30707
G1 X139.359 Y114.332 E6.31858
G1 X139.402 Y114.647 E6.32915
G1 X139.443 Y114.995 E6.34081
G1 X139.495 Y115.5 E6.35769
G1 X139.526 Y115.856 E6.36958
G1 X139.547 Y116.16 E6.37971
G1 X139.566 Y116.545 E6.39253
G1 X139.577 Y116.883 E6.40378
G1 X139.583 Y117.228 E6.41526
G1 X139.583 Y117.892 E6.43734
G1 X139.568 Y118.446 E6.45578
G1 X139.546 Y118.866 E6.46976
G1 X139.506 Y119.393 E6.48734
G1 X139.444 Y119.998 E6.50757
G1 X139.401 Y120.352 E6.51943
G1 X139.291 Y121.121 E6.54527
G1 X139.239 Y121.429 E6.55566
G1 X139.158 Y121.858 E6.57018
G1 X139.103 Y122.118 E6.57902
G1 X139.027 Y122.449 E6.59031
G1 X138.814 Y123.3 E6.61949
G1 X138.73 Y123.607 E6.63008
G1 X138.531 Y124.26 E6.65278
G1 X138.426 Y124.573 E6.66376
G1 X138.239 Y125.099 E6.68233
G1 X137.996 Y125.729 E6.70479
G1 X137.869 Y126.036 E6.71584
G1 X137.626 Y126.597 E6.73617
G1 X137.467 Y126.947 E6.74896
G1 X137.214 Y127.468 E6.76822
G1 X137.053 Y127.783 E6.77999
G1 X136.825 Y128.204 E6.79591
G1 X136.477 Y128.808 E6.8191
G1 X136.266 Y129.156 E6.83263
G1 X135.902 Y129.721 E6.85499
G1 X135.716 Y129.993 E6.86595
G1 X135.411 Y130.424 E6.88351
G1 X135.053 Y130.906 E6.90348
G1 X134.827 Y131.194 E6.91565
G1 X134.491 Y131.608 E6.93339
G1 X134.244 Y131.901 E6.94613
G1 X133.961 Y132.225 E6.96044
G1 X133.734 Y132.477 E6.97172
G1 X133.462 Y132.769 E6.985
G1 X132.996 Y133.245 E7.00715
G1 X132.515 Y133.703 E7.02924
G1 X132.25 Y133.941 E7.04109
G1 X131.665 Y134.443 E7.06673
G1 X131.23 Y134.799 E7.08542
G1 X130.701 Y135.208 E7.10766
G1 X130.443 Y135.396 E7.11828
G1 X129.751 Y135.879 E7.14635
G1 X129.374 Y136.127 E7.16136
G1 X129.053 Y136.33 E7.17399
G1 X128.793 Y136.488 E7.18411
G1 X128.202 Y136.821 E7.20667
G1 X127.384 Y137.249 E7.23738
G1 X126.743 Y137.558 E7.26105
G1 X126.096 Y137.843 E7.28456
G1 X125.485 Y138.094 E7.30653
G1 X125.066 Y138.251 E7.32141
G1 X124.352 Y138.498 E7.34654
G1 X124.143 Y138.565 E7.35384
G1 X123.764 Y138.679 E7.367
G1 X123.371 Y138.789 E7.38058
G1 X122.979 Y138.89 E7.39404
G1 X122.151 Y139.088 E7.42236
G1 X121.466 Y139.228 E7.44561
G1 X121.014 Y139.305 E7.46086
G1 X120.663 Y139.359 E7.47267
G1 X120.347 Y139.402 E7.48328
G1 X120.006 Y139.443 E7.4947
G1 X119.502 Y139.495 E7.51156
G1 X119.142 Y139.526 E7.52357
G1 X118.837 Y139.547 E7.53374
G1 X118.461 Y139.566 E7.54626
G1 X118.1 Y139.578 E7.55828
G1 X117.748 Y139.584 E7.56999
G1 X117.253 Y139.584 E7.58645
G1 X116.903 Y139.578 E7.59809
G1 X116.54 Y139.566 E7.61017
G1 X116.157 Y139.547 E7.62293
G1 X115.854 Y139.526 E7.63303
G1 X115.501 Y139.495 E7.64482
G1 X114.996 Y139.443 E7.6617
G1 X114.636 Y139.4 E7.67376
G1 X113.885 Y139.292 E7.69899
G1 X113.581 Y139.241 E7.70925
G1 X113.141 Y139.158 E7.72414
G1 X112.881 Y139.103 E7.73298
G1 X112.559 Y139.029 E7.74397
G1 X111.67 Y138.807 E7.77444
G1 X111.363 Y138.722 E7.78504
G1 X110.724 Y138.526 E7.80727
G1 X110.437 Y138.428 E7.81736
G1 X109.912 Y138.242 E7.83588
G1 X109.546 Y138.105 E7.84888
G1 X109.271 Y137.996 E7.85872
G1 X108.956 Y137.865 E7.87007
G1 X108.394 Y137.621 E7.89044
G1 X107.809 Y137.35 E7.91189
G1 X107.534 Y137.215 E7.92208
G1 X107.209 Y137.049 E7.93421
G1 X106.772 Y136.812 E7.95075
G1 X106.192 Y136.477 E7.97303
G1 X105.844 Y136.266 E7.98656
G1 X105.48 Y136.035 E8.0009
G1 X105.006 Y135.715 E8.01992
G1 X104.319 Y135.223 E8.04803
G1 X104.104 Y135.061 E8.05698
G1 X103.804 Y134.826 E8.06966
G1 X103.385 Y134.486 E8.0876
G1 X103.089 Y134.237 E8.10047
G1 X102.772 Y133.96 E8.11447
G1 X102.522 Y133.734 E8.12568
G1 X102.23 Y133.462 E8.13895
G1 X101.754 Y132.996 E8.16111
G1 X101.296 Y132.515 E8.1832
G1 X101.056 Y132.249 E8.19511
G1 X100.754 Y131.901 E8.21044
G1 X100.553 Y131.661 E8.22085
G1 X100.195 Y131.223 E8.23967
G1 X99.917 Y130.868 E8.25466
