;FLAVOR:Marlin
;TIME:699
;Filament used: 0.318005m
;Layer height: 0.12
;MINX:97.753
;MINY:99.269
;MINZ:0.144
;MAXX:137.003
;MAXY:145.272
;MAXZ:3.354
;Generated with Cura_SteamEngine 4.6.0
M140 S50
M105
M190 S50
M104 S205
M105
M109 S205
M82 ;absolute extrusion mode
; Ender 3 Custom Start G-code
G92 E0 ; Reset Extruder
G28 ; Home all axes
G1 Z2.0 F3000 ; Move Z Axis up little to prevent scratching of Heat Bed
G1 X0.1 Y20 Z0.3 F5000.0 ; Move to start position
G1 X0.1 Y200.0 Z0.3 F1500.0 E15 ; Draw the first line
G1 X0.4 Y200.0 Z0.3 F5000.0 ; Move to side a little
G1 X0.4 Y20 Z0.3 F1500.0 E30 ; Draw the second line
G92 E0 ; Reset Extruder
G1 Z2.0 F3000 ; Move Z Axis up little to prevent scratching of Heat Bed
G1 X5 Y20 Z0.3 F5000.0 ; Move over to prevent blob squish
G92 E0
G92 E0
G1 F2700 E-5
;LAYER_COUNT:22
;LAYER:-6
M107
G0 F9000 X104.254 Y105.185 Z0.144
;TYPE:SUPPORT-INTERFACE
G1 F2700 E0
G1 F1350 X104.26 Y105.18 E0.00037
G1 X104.42 Y105.038 E0.01062
G1 X105.043 Y104.463 E0.05122
G1 X105.838 Y103.822 E0.10014
G1 X105.838 Y103.821 E0.10018
G1 X105.935 Y103.749 E0.10597
G1 X106.338 Y103.468 E0.1295
G1 X106.586 Y103.287 E0.1442
G1 X106.701 Y103.21 E0.15083
G1 X106.701 Y103.211 E0.15088
G1 X106.977 Y103.032 E0.16664
G1 X107.115 Y102.939 E0.17461
G1 X107.702 Y102.588 E0.20736
G1 X108.034 Y102.411 E0.22538
G1 X108.034 Y102.412 E0.22543
G1 X108.604 Y102.108 E0.25637
G1 X109.367 Y101.753 E0.29668
G1 X109.371 Y101.751 E0.29689
G1 X109.509 Y101.701 E0.30392
G1 X109.823 Y101.578 E0.32007
G1 X110.326 Y101.368 E0.34618
G1 X110.326 Y101.369 E0.34623
G1 X110.37 Y101.354 E0.34845
G1 X110.372 Y101.359 E0.34871
G1 X111.187 Y101.082 E0.38994
G1 X111.32 Y101.043 E0.39658
G1 X111.32 Y101.045 E0.39667
G1 X112.274 Y100.784 E0.44404
G1 X112.441 Y100.752 E0.45219
G1 X113.316 Y100.568 E0.49501
G1 X113.317 Y100.568 E0.49506
G1 X114.035 Y100.461 E0.52983
G1 X114.036 Y100.461 E0.52987
G1 X114.119 Y100.452 E0.53387
G1 X114.119 Y100.451 E0.53392
G1 X114.433 Y100.423 E0.54902
G1 X114.646 Y100.395 E0.55931
G1 X115.563 Y100.336 E0.60332
G1 X116.457 Y100.325 E0.64614
G1 X116.631 Y100.329 E0.65448
G1 X117.203 Y100.362 E0.68192
G1 X117.867 Y100.358 E0.71372
G1 X118.352 Y100.328 E0.73699
G1 X119.169 Y100.325 E0.77612
G1 X119.725 Y100.347 E0.80277
G1 X119.725 Y100.346 E0.80282
G1 X120.519 Y100.411 E0.84098
G1 X120.519 Y100.41 E0.84102
G1 X121.003 Y100.467 E0.86437
G1 X121.679 Y100.575 E0.89715
G1 X121.679 Y100.576 E0.8972
G1 X121.811 Y100.605 E0.90367
G1 X122.108 Y100.65 E0.91806
G1 X122.193 Y100.668 E0.92222
G1 X123.239 Y100.913 E0.97368
G1 X123.323 Y100.942 E0.97793
G1 X123.534 Y101.009 E0.98854
G1 X124.412 Y101.275 E1.03247
G1 X124.582 Y101.341 E1.04121
G1 X124.755 Y101.398 E1.04993
G1 X125.322 Y101.626 E1.0792
G1 X125.885 Y101.864 E1.10848
G1 X126.533 Y102.175 E1.1429
G1 X127.291 Y102.584 E1.18415
G1 X127.815 Y102.896 E1.21336
G1 X127.985 Y103.014 E1.22327
G1 X128.753 Y103.52 E1.26732
G1 X128.753 Y103.519 E1.26737
G1 X128.764 Y103.527 E1.26802
G1 X129.513 Y104.099 E1.31316
G1 X130.273 Y104.743 E1.36087
G1 X131.087 Y105.526 E1.41497
G1 X131.092 Y105.532 E1.41534
G1 X131.23 Y105.687 E1.42528
G1 X131.786 Y106.292 E1.46463
G1 X131.813 Y106.321 E1.46653
G1 X132.521 Y107.205 E1.52077
G1 X132.802 Y107.608 E1.54431
G1 X132.984 Y107.856 E1.55904
G1 X133.204 Y108.196 E1.57843
G1 X133.335 Y108.389 E1.58961
G1 X133.413 Y108.523 E1.59703
G1 X133.418 Y108.53 E1.59744
G1 X133.665 Y108.942 E1.62045
G1 X134.161 Y109.871 E1.67089
G1 X134.544 Y110.698 E1.71454
G1 X134.569 Y110.77 E1.71819
G1 X134.709 Y111.124 E1.73642
G1 X134.848 Y111.446 E1.75322
G1 X134.848 Y111.448 E1.75332
G1 X134.868 Y111.502 E1.75607
G1 X135.17 Y112.395 E1.80122
G1 X135.173 Y112.402 E1.80159
G1 X135.222 Y112.573 E1.81011
G1 X135.487 Y113.546 E1.85841
G1 X135.518 Y113.711 E1.86645
G1 X135.68 Y114.473 E1.90376
G1 X135.679 Y114.473 E1.90381
G1 X135.708 Y114.627 E1.91131
G1 X135.822 Y115.429 E1.95011
G1 X135.846 Y115.704 E1.96333
G1 X135.876 Y115.921 E1.97382
G1 X135.937 Y116.897 E2.02066
G1 X135.945 Y117.692 E2.05874
G1 X135.946 Y117.692 E2.05879
G1 X135.946 Y117.79 E2.06348
G1 X135.92 Y118.493 E2.09717
G1 X135.886 Y118.877 E2.11564
G1 X135.872 Y119.121 E2.12734
G1 X135.868 Y119.161 E2.12927
G1 X135.743 Y120.126 E2.17587
G1 X135.698 Y120.393 E2.18884
G1 X135.697 Y120.393 E2.18889
G1 X135.666 Y120.534 E2.1958
G1 X135.612 Y120.88 E2.21257
G1 X135.489 Y121.414 E2.23882
G1 X135.488 Y121.414 E2.23887
G1 X135.434 Y121.644 E2.25018
G1 X135.327 Y122.305 E2.28225
G1 X135.304 Y122.993 E2.31522
G1 X135.413 Y123.913 E2.35959
G1 X135.457 Y124.135 E2.37043
G1 X135.573 Y124.942 E2.40948
G1 X135.614 Y125.285 E2.42603
G1 X135.687 Y126.318 E2.47562
G1 X135.694 Y126.505 E2.48459
G1 X135.693 Y127.578 E2.53598
G1 X135.669 Y127.815 E2.54739
G1 X135.652 Y128.062 E2.55925
G1 X135.622 Y128.668 E2.5883
G1 X135.621 Y128.668 E2.58835
G1 X135.603 Y128.88 E2.59854
G1 X135.58 Y129.045 E2.60652
G1 X135.562 Y129.219 E2.6149
G1 X135.563 Y129.219 E2.61495
G1 X135.553 Y129.294 E2.61857
G1 X135.552 Y129.294 E2.61862
G1 X135.365 Y130.412 E2.67291
G1 X135.242 Y130.946 E2.69915
G1 X135.241 Y130.946 E2.6992
G1 X135.108 Y131.507 E2.72682
G1 X135.081 Y131.585 E2.73077
G1 X135.014 Y131.796 E2.74137
G1 X134.769 Y132.619 E2.7825
G1 X134.768 Y132.619 E2.78255
G1 X134.753 Y132.662 E2.78473
G1 X134.696 Y132.808 E2.79224
G1 X134.546 Y133.214 E2.81297
G1 X134.465 Y133.41 E2.82312
G1 X134.151 Y134.162 E2.86215
G1 X133.807 Y134.875 E2.90007
G1 X133.755 Y134.967 E2.90513
G1 X133.462 Y135.514 E2.93485
G1 X133.166 Y136.01 E2.96251
G1 X133.131 Y136.07 E2.96584
G1 X133.013 Y136.241 E2.97579
G1 X132.492 Y137.03 E3.02108
G1 X131.944 Y137.752 E3.06449
G1 X131.28 Y138.535 E3.11366
G1 X130.484 Y139.36 E3.16857
G1 X130.326 Y139.501 E3.17871
G1 X129.895 Y139.899 E3.20681
G1 X129.889 Y139.903 E3.20715
G1 X129.702 Y140.076 E3.21935
G1 X128.987 Y140.655 E3.26342
G1 X128.83 Y140.773 E3.27282
G1 X128.016 Y141.346 E3.3205
G1 X127.661 Y141.577 E3.34079
G1 X126.617 Y142.184 E3.39862
G1 X126.094 Y142.449 E3.42671
G1 X125.913 Y142.54 E3.43641
G1 X125.743 Y142.614 E3.44529
G1 X125.341 Y142.799 E3.46648
G1 X125.222 Y142.842 E3.47254
G1 X124.886 Y142.974 E3.48983
G1 X124.514 Y143.133 E3.50921
G1 X124.383 Y143.178 E3.51584
G1 X124.381 Y143.173 E3.5161
G1 X123.659 Y143.424 E3.55271
G1 X123.408 Y143.496 E3.56522
G1 X122.477 Y143.749 E3.61142
G1 X122.312 Y143.78 E3.61947
G1 X121.367 Y143.974 E3.66567
G1 X120.718 Y144.071 E3.6971
G1 X120.717 Y144.071 E3.69715
G1 X120.634 Y144.08 E3.70114
G1 X120.634 Y144.081 E3.70119
G1 X120.32 Y144.109 E3.71629
G1 X120.107 Y144.137 E3.72658
G1 X119.159 Y144.198 E3.77208
G1 X119.051 Y144.198 E3.77725
G1 X118.502 Y144.212 E3.80355
G1 X115.843 Y144.209 E3.93091
G1 X114.979 Y144.181 E3.97231
G1 X114.583 Y144.146 E3.99135
G1 X114.293 Y144.127 E4.00527
G1 X114.293 Y144.128 E4.00532
G1 X114.104 Y144.102 E4.01445
G1 X113.755 Y144.066 E4.03126
G1 X113.755 Y144.067 E4.0313
G1 X113.73 Y144.063 E4.03252
G1 X113.73 Y144.062 E4.03257
G1 X112.559 Y143.864 E4.08945
G1 X111.514 Y143.619 E4.14085
G1 X111.43 Y143.59 E4.14511
G1 X111.219 Y143.523 E4.15571
G1 X110.337 Y143.256 E4.19985
G1 X110.189 Y143.199 E4.20744
G1 X109.801 Y143.055 E4.22727
G1 X108.939 Y142.7 E4.27191
G1 X108.122 Y142.299 E4.3155
G1 X107.842 Y142.157 E4.33054
G1 X107.771 Y142.113 E4.33454
G1 X107.488 Y141.947 E4.35025
G1 X107.197 Y141.788 E4.36614
G1 X106.828 Y141.565 E4.38679
G1 X106.626 Y141.426 E4.39853
G1 X106.083 Y141.071 E4.4296
G1 X106 Y141.01 E4.43454
G1 X105.236 Y140.432 E4.48042
G1 X105.219 Y140.416 E4.48154
G1 X105.072 Y140.292 E4.49075
G1 X105.071 Y140.293 E4.49082
G1 X104.722 Y139.994 E4.51283
G1 X104.584 Y139.883 E4.52131
G1 X104.386 Y139.7 E4.53422
G1 X104.383 Y139.698 E4.53439
G1 X104.018 Y139.346 E4.55868
G1 X103.983 Y139.312 E4.56102
G1 X103.988 Y139.307 E4.56136
G1 X103.619 Y138.955 E4.58578
G1 X103.486 Y138.804 E4.59542
G1 X102.944 Y138.216 E4.63372
G1 X102.231 Y137.324 E4.68841
G1 X101.72 Y136.605 E4.73066
G1 X101.721 Y136.605 E4.73071
G1 X101.442 Y136.175 E4.75526
G1 X100.852 Y135.165 E4.81128
G1 X100.552 Y134.575 E4.84298
G1 X100.215 Y133.847 E4.8814
G1 X100.182 Y133.754 E4.88613
G1 X100.044 Y133.408 E4.90397
G1 X99.873 Y132.996 E4.92533
G1 X99.61 Y132.23 E4.96412
G1 X99.534 Y131.97 E4.9771
G1 X99.53 Y131.961 E4.97757
G1 X99.267 Y130.992 E5.02566
G1 X99.233 Y130.811 E5.03448
G1 X99.042 Y129.886 E5.07972
G1 X98.95 Y129.266 E5.10974
G1 X98.949 Y129.266 E5.10978
G1 X98.93 Y129.095 E5.11802
G1 X98.907 Y128.828 E5.13086
G1 X98.877 Y128.608 E5.14149
G1 X98.878 Y128.608 E5.14154
G1 X98.816 Y127.635 E5.18824
G1 X98.807 Y126.734 E5.23139
G1 X98.816 Y126.591 E5.23826
G1 X98.834 Y126.032 E5.26504
G1 X98.867 Y125.662 E5.28283
G1 X98.882 Y125.392 E5.29579
G1 X98.894 Y125.285 E5.30094
G1 X98.893 Y125.285 E5.30099
G1 X98.95 Y124.799 E5.32443
G1 X99.067 Y124.076 E5.3595
G1 X99.085 Y124.01 E5.36278
G1 X99.138 Y123.667 E5.3794
G1 X99.269 Y123.097 E5.40742
G1 X99.271 Y123.091 E5.40772
G1 X99.355 Y122.738 E5.4251
G1 X99.344 Y122.732 E5.4257
G1 X99.425 Y122.233 E5.44991
G1 X99.449 Y121.546 E5.48283
G1 X99.34 Y120.619 E5.52754
G1 X99.289 Y120.354 E5.54046
G1 X99.197 Y119.734 E5.57048
G1 X99.196 Y119.734 E5.57053
G1 X99.18 Y119.59 E5.57747
G1 X99.153 Y119.295 E5.59166
G1 X99.124 Y119.076 E5.60224
G1 X99.125 Y119.076 E5.60229
G1 X99.063 Y118.103 E5.64898
G1 X99.054 Y117.196 E5.69242
G1 X99.063 Y117.057 E5.6991
G1 X99.081 Y116.497 E5.72593
G1 X99.116 Y116.1 E5.74502
G1 X99.139 Y115.773 E5.76072
G1 X99.14 Y115.773 E5.76077
G1 X99.199 Y115.247 E5.78612
G1 X99.2 Y115.247 E5.78616
G1 X99.332 Y114.478 E5.82353
G1 X99.388 Y114.121 E5.84084
G1 X99.389 Y114.115 E5.84113
G1 X99.646 Y113.023 E5.89486
G1 X99.739 Y112.736 E5.90931
G1 X100.006 Y111.854 E5.95345
G1 X100.063 Y111.706 E5.96104
G1 X100.207 Y111.318 E5.98087
G1 X100.566 Y110.446 E6.02603
G1 X100.909 Y109.731 E6.06401
G1 X101.343 Y108.928 E6.10773
G1 X101.617 Y108.47 E6.13329
G1 X101.744 Y108.285 E6.14404
G1 X102.26 Y107.504 E6.18887
G1 X102.688 Y106.945 E6.22259
G1 X102.793 Y106.799 E6.2312
G1 X102.987 Y106.567 E6.24569
G1 X102.988 Y106.567 E6.24574
G1 X103.505 Y105.963 E6.28381
G1 X103.922 Y105.528 E6.31267
G1 X103.921 Y105.528 E6.31272
G1 X104.005 Y105.444 E6.31841
G1 X104.254 Y105.185 E6.33562
G0 F9000 X104 Y105.449
G1 F1350 X104 Y139.328 E7.95824
G0 F9000 X105.6 Y140.707
G1 F1350 X105.6 Y104.013 E9.71569
G0 F9000 X107.2 Y102.888
G1 F1350 X107.2 Y141.789 E11.57883
G0 F9000 X108.8 Y142.631
G1 F1350 X108.8 Y102.016 E13.52407
G0 F9000 X110.4 Y101.349
G1 F1350 X110.4 Y143.275 E15.5321
G0 F9000 X112 Y143.732
G1 F1350 X112 Y100.858 E17.58553
G0 F9000 X113.6 Y100.525
G1 F1350 X113.6 Y144.04 E19.66967
G0 F9000 X115.2 Y144.188
G1 F1350 X115.2 Y100.359 E21.76884
G0 F9000 X116.8 Y100.339
G1 F1350 X116.8 Y144.21 E23.87002
G0 F9000 X118.4 Y144.211
G1 F1350 X118.4 Y100.327 E25.97183
G0 F9000 X120 Y100.369
G1 F1350 X120 Y144.144 E28.06841
G0 F9000 X121.6 Y143.927
G1 F1350 X121.6 Y100.563 E30.14532
G0 F9000 X123.2 Y100.904
G1 F1350 X123.2 Y143.553 E32.18797
G0 F9000 X124.8 Y143.011
G1 F1350 X124.8 Y101.417 E34.1801
G0 F9000 X126.4 Y102.112
G1 F1350 X126.4 Y142.294 E36.1046
G0 F9000 X128 Y141.357
G1 F1350 X128 Y103.024 E37.94054
G0 F9000 X129.6 Y104.173
G1 F1350 X129.6 Y140.159 E39.66408
G0 F9000 X131.2 Y138.618
G1 F1350 X131.2 Y105.654 E41.24288
G0 F9000 X132.8 Y107.606
G1 F1350 X132.8 Y136.564 E42.62981
G0 F9000 X134.4 Y133.566
G1 F1350 X134.4 Y110.388 E43.73991
G1 F2700 E38.73991
G0 F9000 X135.142 Y109.456
G0 X134.091 Y107.604
G0 X132.865 Y105.72
G0 X130.357 Y103.346
G0 X127.778 Y101.633
G0 X126.107 Y100.802
G0 X124.694 Y100.245
G0 X122.42 Y99.628
G0 X120.411 Y99.331
G0 X118.185 Y99.269
G0 X114.903 Y99.313
G0 X112.368 Y99.629
G0 X111.025 Y99.989
G0 X108.972 Y100.76
G0 X107.26 Y101.577
G0 X104.45 Y103.405
G0 X102.076 Y105.913
G0 X101.825 Y106.321
G0 X102.4 Y107.321
G1 F2700 E43.73991
G1 F1350 X102.4 Y137.535 E45.187
G0 F9000 X100.8 Y135.062
G1 F1350 X100.8 Y109.958 E46.38934
G1 F2700 E41.38934
G0 F9000 X99.647 Y109.897
G0 X98.934 Y111.702
G0 X98.226 Y114.335
G0 X98.207 Y114.705
G0 X99.2 Y115.247
G1 F2700 E46.38934
G1 F1350 X99.2 Y119.754 E46.6052
G0 F9000 X99.2 Y123.397
G1 F1350 X99.2 Y130.651 E46.95263
G0 F300 X99.2 Y130.651 Z0.324
G0 F9000 X98.95 Y129.265
;TIME_ELAPSED:53.652337
;LAYER:-5
M140 S50
;TYPE:SUPPORT
G1 F1350 X99.041 Y129.885 E46.99015
G1 X99.11 Y130.223 E47.0108
G1 X112.788 Y143.901 E48.16887
G1 X112.559 Y143.862 E48.18278
G1 X111.514 Y143.618 E48.24702
G1 X111.43 Y143.589 E48.25234
G1 X111.218 Y143.522 E48.26565
G1 X110.898 Y143.425 E48.28567
G1 X99.571 Y132.098 E49.24469
G1 X99.61 Y132.228 E49.25281
G1 X99.873 Y132.995 E49.30136
G1 X100.044 Y133.407 E49.32806
G1 X100.182 Y133.752 E49.35031
G1 X100.214 Y133.846 E49.35625
G1 X100.481 Y134.423 E49.39432
G1 X108.583 Y142.524 E50.08024
G1 X108.122 Y142.298 E50.11098
G1 X107.841 Y142.156 E50.12983
G1 X107.77 Y142.112 E50.13483
G1 X107.488 Y141.946 E50.15442
G1 X107.196 Y141.786 E50.17435
G1 X106.828 Y141.564 E50.20008
G1 X106.626 Y141.425 E50.21476
G1 X106.082 Y141.07 E50.25365
G1 X106 Y141.009 E50.25977
G1 X105.235 Y140.431 E50.31717
G1 X105.218 Y140.415 E50.31857
G1 X105.071 Y140.291 E50.33008
G0 F9000 X105.071 Y140.292
G1 F1350 X104.721 Y139.993 E50.35764
G1 X104.583 Y139.882 E50.36825
G1 X104.385 Y139.698 E50.38443
G0 F9000 X104.383 Y139.697
G1 F1350 X104.018 Y139.345 E50.41479
G1 X103.982 Y139.311 E50.41775
G1 X103.987 Y139.306 E50.41817
G1 X103.618 Y138.954 E50.4487
G1 X103.485 Y138.802 E50.4608
G1 X102.943 Y138.215 E50.50863
G1 X102.23 Y137.322 E50.57704
G1 X101.72 Y136.604 E50.62977
G0 F9000 X101.72 Y136.603
G1 F1350 X101.442 Y136.173 E50.66042
G1 X100.852 Y135.164 E50.7304
G1 X100.551 Y134.573 E50.7701
G1 F2700 E45.7701
G0 F9000 X99.4 Y134.624
G0 X98.6 Y132.567
G0 X98.267 Y131.307
G0 X97.897 Y129.421
G0 X98.948 Y129.265
G1 F2700 E50.7701
G1 F1350 X98.93 Y129.094 E50.7804
G1 X98.906 Y128.827 E50.79645
G1 X98.877 Y128.607 E50.80973
G1 X98.875 Y128.573 E50.81177
G1 X114.436 Y144.135 E52.12931
G1 X114.583 Y144.145 E52.13813
G1 X114.979 Y144.179 E52.16193
G1 X115.843 Y144.208 E52.21368
G1 X115.923 Y144.208 E52.21847
G1 X98.81 Y127.094 E53.66741
G1 X98.806 Y126.733 E53.68902
G1 X98.816 Y126.589 E53.69767
G1 X98.834 Y126.031 E53.73109
G1 X98.86 Y125.73 E53.74918
G1 X117.339 Y144.209 E55.31373
G1 X118.501 Y144.21 E55.3833
G1 X118.748 Y144.204 E55.39809
G1 X99.004 Y124.459 E57.06978
G1 X99.066 Y124.075 E57.09307
G1 X99.084 Y124.008 E57.09723
G1 X99.137 Y123.665 E57.118
G1 X99.229 Y123.27 E57.14228
G1 X120.095 Y144.136 E58.90894
G1 X120.107 Y144.135 E58.90966
G1 X120.319 Y144.108 E58.92245
G1 X120.633 Y144.08 E58.94132
G0 F9000 X120.634 Y144.079
G1 F1350 X120.717 Y144.07 E58.94632
G1 X121.348 Y143.975 E58.98453
G1 X99.43 Y122.057 E60.84025
G1 X99.449 Y121.545 E60.87092
G1 X99.34 Y120.618 E60.9268
G1 X99.324 Y120.537 E60.93174
G1 X122.522 Y143.735 E62.89583
G1 X123.407 Y143.495 E62.95073
G1 X123.631 Y143.43 E62.9647
G1 X99.114 Y118.913 E65.04046
G1 X99.062 Y118.102 E65.08912
G1 X99.055 Y117.44 E65.12875
G1 X124.677 Y143.062 E67.29808
G1 X124.885 Y142.973 E67.31162
G1 X125.221 Y142.841 E67.33323
G1 X125.341 Y142.798 E67.34086
G1 X125.674 Y142.644 E67.36283
G1 X99.116 Y116.087 E69.61136
G1 X99.138 Y115.772 E69.63026
G0 F9000 X99.139 Y115.772
G1 F1350 X99.199 Y115.246 E69.66196
G0 F9000 X99.2 Y115.245
G1 F1350 X99.271 Y114.827 E69.68734
G1 X126.623 Y142.179 E72.00314
G1 X127.517 Y141.659 E72.06506
G1 X99.499 Y113.641 E74.43724
G1 X99.646 Y113.021 E74.47539
G1 X99.738 Y112.735 E74.49338
G1 X99.801 Y112.528 E74.50633
G1 X128.368 Y141.096 E76.92504
G1 X128.83 Y140.772 E76.95882
G1 X128.986 Y140.654 E76.97053
G1 X129.182 Y140.495 E76.98564
G1 X100.151 Y111.465 E79.44355
G1 X100.206 Y111.316 E79.45306
G1 X100.559 Y110.459 E79.50855
G1 X129.948 Y139.848 E81.99681
G1 X130.326 Y139.5 E82.02757
G1 X130.483 Y139.359 E82.04021
G1 X130.676 Y139.161 E82.05676
G1 X101.026 Y109.511 E84.56712
G1 X101.343 Y108.927 E84.6069
G1 X101.534 Y108.605 E84.62932
G1 X131.364 Y138.435 E87.15492
G1 X131.944 Y137.75 E87.20866
G1 X132.009 Y137.665 E87.21506
G1 X102.094 Y107.751 E89.74782
