;FLAVOR:Marlin
;TIME:3346
;Filament used: 2.42988m
;Layer height: 0.2
;MINX:73.485
;MINY:73.485
;MINZ:0.2
;MAXX:161.515
;MAXY:161.515
;MAXZ:2.4
;Generated with Cura_SteamEngine 4.5.0
M140 S50
M105
M190 S50
M104 S200
M105
M109 S200
M82 ;absolute extrusion mode
; Ender 3 Custom Start G-code
G92 E0 ; Reset Extruder
G28 ; Home all axes
G1 Z2.0 F3000 ; Move Z Axis up little to prevent scratching of Heat Bed
G1 X0.1 Y20 Z0.3 F5000.0 ; Move to start position
G1 X0.1 Y200.0 Z0.3 F1500.0 E15 ; Draw the first line
G1 X0.4 Y200.0 Z0.3 F5000.0 ; Move to side a little
G1 X0.4 Y20 Z0.3 F1500.0 E30 ; Draw the second line
G92 E0 ; Reset Extruder
G1 Z2.0 F3000 ; Move Z Axis up little to prevent scratching of Heat Bed
G1 X5 Y20 Z0.3 F5000.0 ; Move over to prevent blob squish
G92 E0
G92 E0
G1 F2700 E-5
;LAYER_COUNT:12
;LAYER:0
M107
G0 F6000 X86.377 Y86.377 Z0.2
;TYPE:SKIRT
G1 F2700 E0
G1 F1200 X86.685 Y86.072 E0.01442
G1 X87.231 Y85.553 E0.03947
G1 X88.232 Y84.71 E0.083
G1 X88.883 Y84.225 E0.11
G1 X90.032 Y83.393 E0.15718
G1 X92.459 Y81.52 E0.25915
G1 X93.344 Y80.813 E0.29682
G1 X93.993 Y80.333 E0.32367
G1 X94.212 Y80.183 E0.3325
G1 X94.525 Y79.976 E0.34498
G1 X94.786 Y79.81 E0.35527
G1 X95.077 Y79.631 E0.36663
G1 X95.63 Y79.303 E0.38802
G1 X95.999 Y79.094 E0.40212
G1 X96.532 Y78.805 E0.42229
G1 X97.686 Y78.263 E0.46469
G1 X98.321 Y78.01 E0.48743
G1 X99.959 Y77.381 E0.54579
G1 X102.623 Y76.265 E0.64185
G1 X103.659 Y75.812 E0.67946
G1 X104.489 Y75.488 E0.70909
G1 X104.8 Y75.381 E0.72003
G1 X105.461 Y75.171 E0.7431
G1 X105.794 Y75.073 E0.75465
G1 X106.176 Y74.967 E0.76783
G1 X106.53 Y74.875 E0.78
G1 X107.249 Y74.701 E0.8046
G1 X108.545 Y74.468 E0.8484
G1 X109.245 Y74.386 E0.87184
G1 X110.86 Y74.217 E0.92585
G1 X113.836 Y73.815 E1.02573
G1 X114.907 Y73.652 E1.06176
G1 X115.708 Y73.56 E1.08858
G1 X115.991 Y73.538 E1.09802
G1 X116.409 Y73.514 E1.11194
G1 X117.058 Y73.491 E1.13354
G1 X117.728 Y73.485 E1.15583
G1 X118.038 Y73.488 E1.16614
G1 X118.774 Y73.51 E1.19063
G1 X119.956 Y73.615 E1.2301
G1 X120.852 Y73.745 E1.26021
G1 X122.091 Y73.945 E1.30195
G1 X125.299 Y74.36 E1.40954
G1 X126.364 Y74.479 E1.44518
G1 X127.157 Y74.597 E1.47185
G1 X127.404 Y74.643 E1.48021
G1 X127.81 Y74.726 E1.49399
G1 X128.529 Y74.893 E1.51854
G1 X129.067 Y75.031 E1.53701
G1 X129.608 Y75.184 E1.55571
G1 X130.087 Y75.328 E1.57235
G1 X131.27 Y75.758 E1.61421
G1 X131.934 Y76.046 E1.63829
G1 X133.278 Y76.648 E1.68727
G1 X136.229 Y77.861 E1.79339
G1 X137.207 Y78.243 E1.82831
G1 X138.028 Y78.603 E1.85812
G1 X138.575 Y78.875 E1.87844
G1 X139.228 Y79.224 E1.90307
G1 X139.603 Y79.438 E1.91743
G1 X140.198 Y79.791 E1.94044
G1 X140.576 Y80.025 E1.95523
G1 X141.609 Y80.749 E1.99718
G1 X142.288 Y81.288 E2.02602
G1 X143.306 Y82.116 E2.06966
G1 X145.823 Y84.037 E2.17497
G1 X146.669 Y84.66 E2.20992
G1 X147.309 Y85.169 E2.23711
G1 X147.513 Y85.344 E2.24605
G1 X147.803 Y85.601 E2.25894
G1 X148.321 Y86.083 E2.28248
G1 X148.99 Y86.747 E2.31383
G1 X149.49 Y87.277 E2.33806
G1 X150.274 Y88.211 E2.37862
G1 X150.765 Y88.869 E2.40593
G1 X151.607 Y90.032 E2.45368
G1 X153.475 Y92.452 E2.55536
G1 X154.187 Y93.344 E2.59332
G1 X154.66 Y93.983 E2.61976
G1 X154.811 Y94.203 E2.62864
G1 X155.024 Y94.525 E2.64148
G1 X155.19 Y94.786 E2.65177
G1 X155.364 Y95.069 E2.66282
G1 X155.682 Y95.604 E2.68352
G1 X155.895 Y95.979 E2.69786
G1 X156.195 Y96.532 E2.71879
G1 X156.731 Y97.67 E2.76062
G1 X156.992 Y98.323 E2.78401
G1 X157.621 Y99.961 E2.84237
G1 X158.747 Y102.649 E2.9393
G1 X159.189 Y103.66 E2.976
G1 X159.523 Y104.519 E3.00666
G1 X159.716 Y105.096 E3.02689
G1 X159.827 Y105.451 E3.03926
G1 X159.929 Y105.8 E3.05136
G1 X160.035 Y106.183 E3.06457
G1 X160.128 Y106.54 E3.07684
G1 X160.301 Y107.258 E3.10141
G1 X160.529 Y108.527 E3.14429
G1 X160.614 Y109.245 E3.16834
G1 X160.783 Y110.86 E3.22235
G1 X161.185 Y113.836 E3.32223
G1 X161.348 Y114.907 E3.35826
G1 X161.44 Y115.708 E3.38508
G1 X161.461 Y115.978 E3.39408
G1 X161.485 Y116.38 E3.40748
G1 X161.509 Y117.056 E3.42998
G1 X161.515 Y117.728 E3.45233
G1 X161.506 Y118.314 E3.47182
G1 X161.49 Y118.774 E3.48713
G1 X161.385 Y119.956 E3.5266
G1 X161.255 Y120.852 E3.55671
G1 X161.055 Y122.091 E3.59845
G1 X160.638 Y125.311 E3.70645
G1 X160.521 Y126.364 E3.74168
G1 X160.4 Y127.175 E3.76896
G1 X160.354 Y127.42 E3.77725
G1 X160.274 Y127.81 E3.79049
G1 X160.107 Y128.529 E3.81504
G1 X159.966 Y129.078 E3.83389
G1 X159.815 Y129.61 E3.85229
G1 X159.673 Y130.083 E3.86871
G1 X159.242 Y131.27 E3.91071
G1 X158.954 Y131.934 E3.93479
G1 X158.352 Y133.278 E3.98377
G1 X157.144 Y136.217 E4.08945
G1 X156.761 Y137.198 E4.12448
G1 X156.413 Y137.995 E4.15341
G1 X156.285 Y138.259 E4.16316
G1 X156.116 Y138.593 E4.17561
G1 X155.785 Y139.213 E4.19899
G1 X155.565 Y139.599 E4.21377
G1 X155.222 Y140.177 E4.23612
G1 X154.979 Y140.57 E4.25149
G1 X154.25 Y141.61 E4.29373
G1 X153.712 Y142.288 E4.32252
G1 X152.884 Y143.306 E4.36616
G1 X150.976 Y145.806 E4.47076
G1 X150.335 Y146.676 E4.50671
G1 X149.836 Y147.304 E4.53338
G1 X149.664 Y147.505 E4.54218
G1 X149.4 Y147.802 E4.5554
G1 X148.904 Y148.335 E4.57962
G1 X148.253 Y148.99 E4.61033
G1 X148.088 Y149.148 E4.61793
G1 X147.71 Y149.502 E4.63515
G1 X146.772 Y150.287 E4.67584
G1 X146.117 Y150.775 E4.703
G1 X144.968 Y151.607 E4.75019
G1 X142.527 Y153.491 E4.85274
G1 X141.671 Y154.175 E4.88919
G1 X141.049 Y154.637 E4.91496
G1 X140.817 Y154.797 E4.92433
G1 X140.475 Y155.024 E4.93798
G1 X140.214 Y155.19 E4.94827
G1 X139.922 Y155.369 E4.95966
G1 X139.374 Y155.694 E4.98085
G1 X139.01 Y155.901 E4.99478
G1 X138.472 Y156.193 E5.01514
G1 X137.314 Y156.737 E5.05769
G1 X136.679 Y156.99 E5.08043
G1 X135.041 Y157.619 E5.13879
G1 X132.377 Y158.735 E5.23485
G1 X131.341 Y159.188 E5.27246
G1 X130.511 Y159.512 E5.3021
G1 X130.2 Y159.619 E5.31303
G1 X129.539 Y159.829 E5.3361
G1 X129.216 Y159.925 E5.34731
G1 X128.839 Y160.03 E5.36033
G1 X128.469 Y160.126 E5.37304
G1 X127.744 Y160.301 E5.39785
G1 X126.456 Y160.532 E5.44137
G1 X125.755 Y160.614 E5.46484
G1 X124.14 Y160.783 E5.51885
G1 X121.164 Y161.185 E5.61873
G1 X120.093 Y161.348 E5.65476
G1 X119.292 Y161.44 E5.68158
G1 X119.009 Y161.462 E5.69102
G1 X118.591 Y161.486 E5.70495
G1 X117.942 Y161.509 E5.72655
G1 X117.271 Y161.515 E5.74887
G1 X116.687 Y161.506 E5.76829
G1 X116.226 Y161.49 E5.78363
G1 X115.044 Y161.385 E5.8231
G1 X114.148 Y161.255 E5.85322
G1 X112.909 Y161.055 E5.89496
G1 X109.701 Y160.64 E6.00255
G1 X108.636 Y160.521 E6.03819
G1 X107.843 Y160.403 E6.06485
G1 X107.596 Y160.357 E6.07321
G1 X107.19 Y160.274 E6.08699
G1 X106.471 Y160.107 E6.11154
G1 X105.922 Y159.966 E6.1304
G1 X105.396 Y159.817 E6.14858
G1 X104.922 Y159.675 E6.16504
G1 X103.722 Y159.238 E6.20751
G1 X103.066 Y158.954 E6.23129
G1 X101.722 Y158.352 E6.28027
G1 X98.771 Y157.139 E6.38639
G1 X97.793 Y156.757 E6.42131
G1 X96.986 Y156.404 E6.45061
G1 X96.729 Y156.279 E6.46011
G1 X96.407 Y156.116 E6.47212
G1 X95.787 Y155.785 E6.49549
G1 X95.393 Y155.56 E6.51058
G1 X94.796 Y155.205 E6.53368
G1 X94.42 Y154.972 E6.5484
G1 X93.385 Y154.246 E6.59045
G1 X92.711 Y153.711 E6.61907
G1 X91.688 Y152.879 E6.66292
G1 X89.194 Y150.976 E6.76726
G1 X88.324 Y150.335 E6.80321
G1 X87.676 Y149.818 E6.83078
G1 X87.476 Y149.646 E6.83955
G1 X87.198 Y149.399 E6.85192
G1 X86.665 Y148.903 E6.87614
G1 X86.032 Y148.276 E6.90577
G1 X85.851 Y148.087 E6.91447
G1 X85.497 Y147.709 E6.9317
G1 X84.71 Y146.768 E6.9725
G1 X84.225 Y146.117 E6.9995
G1 X83.393 Y144.968 E7.04668
G1 X81.509 Y142.527 E7.14924
G1 X80.813 Y141.656 E7.18632
G1 X80.325 Y140.996 E7.21362
G1 X80.176 Y140.778 E7.22241
G1 X79.967 Y140.461 E7.23504
G1 X79.627 Y139.916 E7.2564
G1 X79.295 Y139.356 E7.27805
G1 X79.081 Y138.977 E7.29253
G1 X78.795 Y138.448 E7.31253
G1 X78.255 Y137.295 E7.35488
G1 X78.001 Y136.658 E7.37769
G1 X77.376 Y135.029 E7.43572
G1 X76.252 Y132.346 E7.53247
G1 X75.81 Y131.337 E7.56911
G1 X75.476 Y130.477 E7.59979
G1 X75.282 Y129.896 E7.62017
G1 X75.171 Y129.54 E7.63257
G1 X75.071 Y129.2 E7.64436
G1 X74.965 Y128.817 E7.65757
G1 X74.875 Y128.47 E7.6695
G1 X74.701 Y127.751 E7.6941
G1 X74.468 Y126.455 E7.7379
G1 X74.386 Y125.755 E7.76134
G1 X74.217 Y124.14 E7.81535
G1 X73.815 Y121.164 E7.91523
G1 X73.652 Y120.093 E7.95126
G1 X73.56 Y119.292 E7.97808
G1 X73.538 Y119.009 E7.98752
G1 X73.514 Y118.591 E8.00144
G1 X73.491 Y117.942 E8.02304
G1 X73.485 Y117.249 E8.04609
G1 X73.495 Y116.655 E8.06585
G1 X73.51 Y116.225 E8.08016
G1 X73.616 Y115.038 E8.1198
G1 X73.749 Y114.125 E8.15049
G1 X73.942 Y112.93 E8.19075
G1 X74.37 Y109.618 E8.30182
G1 X74.479 Y108.635 E8.33472
G1 X74.604 Y107.798 E8.36286
G1 X74.65 Y107.556 E8.37106
G1 X74.726 Y107.19 E8.38349
G1 X74.893 Y106.471 E8.40804
G1 X75.034 Y105.922 E8.42689
G1 X75.186 Y105.386 E8.44542
G1 X75.33 Y104.907 E8.46206
G1 X75.765 Y103.715 E8.50426
G1 X76.046 Y103.066 E8.52778
G1 X76.648 Y101.722 E8.57677
G1 X77.85 Y98.797 E8.68195
G1 X78.25 Y97.775 E8.71845
G1 X78.615 Y96.945 E8.74861
G1 X78.884 Y96.407 E8.76861
G1 X79.317 Y95.606 E8.7989
G1 X79.448 Y95.378 E8.80764
G1 X79.797 Y94.793 E8.8303
G1 X80.034 Y94.411 E8.84525
G1 X80.754 Y93.386 E8.88691
G1 X81.288 Y92.712 E8.91551
G1 X82.116 Y91.694 E8.95916
G1 X84.024 Y89.194 E9.06376
G1 X84.665 Y88.324 E9.0997
G1 X85.182 Y87.676 E9.12727
G1 X85.354 Y87.476 E9.13605
G1 X85.601 Y87.198 E9.14841
G1 X86.097 Y86.665 E9.17263
G1 X86.377 Y86.377 E9.18599
G0 F6000 X86.664 Y86.656
G1 F1200 X86.961 Y86.362 E9.19989
G1 X87.507 Y85.843 E9.22494
G1 X88.471 Y85.03 E9.26689
G1 X89.117 Y84.549 E9.29368
G1 X90.297 Y83.694 E9.34214
G1 X92.704 Y81.837 E9.44326
G1 X93.594 Y81.126 E9.48114
G1 X94.219 Y80.663 E9.50701
G1 X94.438 Y80.513 E9.51584
G1 X94.739 Y80.314 E9.52784
G1 X95.281 Y79.975 E9.54911
G1 X95.834 Y79.647 E9.57049
G1 X96.189 Y79.446 E9.58406
G1 X96.722 Y79.157 E9.60423
G1 X97.835 Y78.635 E9.64511
G1 X98.464 Y78.384 E9.66764
G1 X100.075 Y77.766 E9.72503
G1 X102.866 Y76.596 E9.82568
G1 X103.82 Y76.179 E9.86031
G1 X104.619 Y75.867 E9.88884
G1 X105.224 Y75.663 E9.91008
G1 X105.58 Y75.552 E9.92248
G1 X105.901 Y75.458 E9.9336
G1 X106.283 Y75.352 E9.94679
G1 X106.624 Y75.263 E9.95851
G1 X107.343 Y75.089 E9.98312
G1 X108.592 Y74.865 E10.02532
G1 X109.286 Y74.784 E10.04856
G1 X110.926 Y74.613 E10.1034
G1 X113.825 Y74.221 E10.2007
G1 X114.967 Y74.047 E10.23912
G1 X115.739 Y73.959 E10.26497
G1 X116.022 Y73.937 E10.27441
G1 X116.425 Y73.913 E10.28783
G1 X117.064 Y73.891 E10.3091
G1 X117.725 Y73.884 E10.33109
G1 X118.035 Y73.887 E10.3414
G1 X118.76 Y73.909 E10.36552
G1 X119.899 Y74.011 E10.40356
G1 X120.788 Y74.14 E10.43343
G1 X122.006 Y74.337 E10.47447
G1 X125.318 Y74.765 E10.58555
G1 X126.32 Y74.877 E10.61908
G1 X127.084 Y74.99 E10.64477
G1 X127.331 Y75.036 E10.65312
G1 X127.722 Y75.117 E10.6664
G1 X128.431 Y75.28 E10.6906
G1 X128.96 Y75.417 E10.70878
G1 X129.493 Y75.567 E10.72719
G1 X129.972 Y75.711 E10.74383
G1 X131.111 Y76.126 E10.78415
G1 X131.77 Y76.411 E10.80803
G1 X133.116 Y77.014 E10.85708
G1 X136.06 Y78.224 E10.96295
G1 X137.061 Y78.615 E10.99869
G1 X137.853 Y78.962 E11.02745
G1 X138.389 Y79.229 E11.04737
G1 X138.756 Y79.422 E11.06116
G1 X139.4 Y79.783 E11.08572
G1 X139.987 Y80.131 E11.10841
G1 X140.365 Y80.365 E11.1232
G1 X141.36 Y81.063 E11.16362
G1 X142.036 Y81.599 E11.19232
G1 X143.056 Y82.429 E11.23606
G1 X145.564 Y84.343 E11.34099
G1 X146.432 Y84.982 E11.37684
G1 X147.049 Y85.473 E11.40306
G1 X147.253 Y85.648 E11.412
G1 X147.532 Y85.896 E11.42442
G1 X148.042 Y86.371 E11.4476
G1 X148.54 Y86.859 E11.47079
G1 X148.85 Y87.178 E11.48558
G1 X149.199 Y87.55 E11.50255
G1 X149.954 Y88.451 E11.54165
G1 X150.441 Y89.104 E11.56874
G1 X151.294 Y90.282 E11.61711
G1 X153.158 Y92.697 E11.71858
G1 X153.874 Y93.594 E11.75675
G1 X154.33 Y94.21 E11.78225
G1 X154.481 Y94.43 E11.79112
G1 X154.686 Y94.739 E11.80345
G1 X155.02 Y95.273 E11.8244
G1 X155.338 Y95.808 E11.8451
G1 X155.543 Y96.169 E11.85891
G1 X155.843 Y96.722 E11.87984
G1 X156.359 Y97.819 E11.92016
G1 X156.618 Y98.466 E11.94334
G1 X157.236 Y100.077 E12.00073
G1 X158.393 Y102.839 E12.10032
G1 X158.823 Y103.821 E12.13598
G1 X159.144 Y104.648 E12.16549
G1 X159.334 Y105.216 E12.18541
G1 X159.445 Y105.571 E12.19778
G1 X159.544 Y105.907 E12.20943
G1 X159.65 Y106.29 E12.22265
G1 X159.739 Y106.634 E12.23446
G1 X159.912 Y107.352 E12.25903
G1 X160.132 Y108.574 E12.30033
G1 X160.216 Y109.286 E12.32417
G1 X160.387 Y110.926 E12.37901
G1 X160.779 Y113.825 E12.47631
G1 X160.953 Y114.967 E12.51473
G1 X161.041 Y115.739 E12.54058
G1 X161.062 Y116.009 E12.54958
G1 X161.085 Y116.396 E12.56248
G1 X161.109 Y117.062 E12.58464
G1 X161.116 Y117.725 E12.6067
G1 X161.107 Y118.3 E12.62582
G1 X161.091 Y118.76 E12.64113
G1 X160.989 Y119.899 E12.67917
G1 X160.86 Y120.788 E12.70904
G1 X160.663 Y122.006 E12.75008
G1 X160.241 Y125.272 E12.85961
G1 X160.124 Y126.32 E12.89469
G1 X160.007 Y127.101 E12.92095
G1 X159.961 Y127.346 E12.92924
G1 X159.883 Y127.722 E12.94202
G1 X159.72 Y128.431 E12.96621
G1 X159.58 Y128.971 E12.98477
G1 X159.432 Y129.495 E13.00288
G1 X159.29 Y129.968 E13.0193
G1 X158.874 Y131.111 E13.05976
G1 X158.589 Y131.77 E13.08364
G1 X157.986 Y133.116 E13.13269
G1 X156.781 Y136.048 E13.23813
G1 X156.389 Y137.052 E13.27397
G1 X156.053 Y137.82 E13.30186
G1 X155.925 Y138.084 E13.31161
G1 X155.762 Y138.407 E13.32365
G1 X155.323 Y139.218 E13.35432
G1 X154.882 Y139.967 E13.38323
G1 X154.639 Y140.36 E13.3986
G1 X153.936 Y141.361 E13.43928
G1 X153.401 Y142.036 E13.46793
G1 X152.571 Y143.056 E13.51167
G1 X150.67 Y145.547 E13.61589
G1 X150.013 Y146.439 E13.65273
G1 X149.532 Y147.044 E13.67844
G1 X149.36 Y147.245 E13.68724
G1 X149.105 Y147.531 E13.69998
G1 X148.617 Y148.056 E13.72382
G1 X147.815 Y148.856 E13.7615
G1 X147.437 Y149.21 E13.77873
G1 X146.533 Y149.967 E13.81794
G1 X145.883 Y150.451 E13.8449
G1 X144.703 Y151.306 E13.89336
G1 X142.319 Y153.145 E13.99351
G1 X141.421 Y153.863 E14.03175
G1 X140.822 Y154.308 E14.05657
G1 X140.59 Y154.468 E14.06594
G1 X140.261 Y154.686 E14.07907
G1 X140 Y154.852 E14.08935
G1 X139.718 Y155.025 E14.10036
G1 X139.17 Y155.35 E14.12155
G1 X138.819 Y155.549 E14.13497
G1 X138.281 Y155.841 E14.15533
G1 X137.165 Y156.365 E14.19633
G1 X136.536 Y156.616 E14.21886
G1 X134.925 Y157.234 E14.27625
G1 X132.134 Y158.404 E14.3769
G1 X131.18 Y158.821 E14.41153
G1 X130.381 Y159.133 E14.44006
G1 X129.776 Y159.337 E14.4613
G1 X129.42 Y159.448 E14.4737
G1 X129.109 Y159.539 E14.48448
G1 X128.732 Y159.644 E14.49749
G1 X128.375 Y159.737 E14.50976
G1 X127.65 Y159.912 E14.53457
G1 X126.409 Y160.134 E14.5765
G1 X125.714 Y160.216 E14.59978
G1 X124.074 Y160.387 E14.65462
G1 X121.175 Y160.779 E14.75192
G1 X120.033 Y160.953 E14.79034
G1 X119.261 Y161.041 E14.81618
G1 X118.978 Y161.063 E14.82562
G1 X118.575 Y161.087 E14.83905
G1 X117.936 Y161.109 E14.86032
G1 X117.275 Y161.116 E14.8823
G1 X116.701 Y161.107 E14.9014
G1 X116.24 Y161.091 E14.91674
G1 X115.101 Y160.989 E14.95478
G1 X114.212 Y160.86 E14.98465
G1 X112.994 Y160.663 E15.02569
G1 X109.682 Y160.235 E15.13676
G1 X108.68 Y160.123 E15.1703
G1 X107.916 Y160.01 E15.19599
G1 X107.669 Y159.964 E15.20434
G1 X107.278 Y159.883 E15.21762
G1 X106.569 Y159.72 E15.24182
G1 X106.029 Y159.58 E15.26037
G1 X105.511 Y159.434 E15.27827
G1 X105.037 Y159.292 E15.29473
G1 X103.881 Y158.871 E15.33565
G1 X103.23 Y158.589 E15.35925
G1 X101.884 Y157.986 E15.4083
G1 X98.94 Y156.776 E15.51417
G1 X97.939 Y156.385 E15.54991
G1 X97.161 Y156.044 E15.57816
G1 X96.904 Y155.919 E15.58767
G1 X96.593 Y155.762 E15.59926
G1 X95.782 Y155.323 E15.62993
G1 X95.007 Y154.865 E15.65987
G1 X94.631 Y154.632 E15.67458
G1 X93.634 Y153.932 E15.7151
G1 X92.963 Y153.4 E15.74358
G1 X91.938 Y152.566 E15.78753
G1 X89.453 Y150.67 E15.89149
G1 X88.561 Y150.013 E15.92834
G1 X87.936 Y149.515 E15.95492
G1 X87.736 Y149.343 E15.96369
G1 X87.469 Y149.104 E15.97561
G1 X86.944 Y148.616 E15.99945
G1 X86.317 Y147.996 E16.02878
G1 X86.143 Y147.814 E16.03715
G1 X85.789 Y147.436 E16.05438
G1 X85.03 Y146.529 E16.09372
G1 X84.549 Y145.883 E16.1205
G1 X83.694 Y144.703 E16.16897
G1 X81.889 Y142.363 E16.26726
G1 X81.125 Y141.407 E16.30797
G1 X80.655 Y140.77 E16.3343
G1 X80.506 Y140.552 E16.34308
G1 X80.304 Y140.247 E16.35524
G1 X80.136 Y139.982 E16.36568
G1 X79.971 Y139.712 E16.37621
G1 X79.639 Y139.152 E16.39786
