;FLAVOR:Marlin
;TIME:2730
;Filament used: 1.76329m
;Layer height: 0.2
;MINX:84.76
;MINY:85.188
;MINZ:0.2
;MAXX:150.244
;MAXY:149.819
;MAXZ:12.4
;Generated with Cura_SteamEngine 4.6.0
M140 S50
M105
M190 S50
M104 S210
M105
M109 S210
M82 ;absolute extrusion mode
; Ender 3 Custom Start G-code
G92 E0 ; Reset Extruder
G28 ; Home all axes
G1 Z2.0 F3000 ; Move Z Axis up little to prevent scratching of Heat Bed
G1 X0.1 Y20 Z0.3 F5000.0 ; Move to start position
G1 X0.1 Y200.0 Z0.3 F1500.0 E15 ; Draw the first line
G1 X0.4 Y200.0 Z0.3 F5000.0 ; Move to side a little
G1 X0.4 Y20 Z0.3 F1500.0 E30 ; Draw the second line
G92 E0 ; Reset Extruder
G1 Z2.0 F3000 ; Move Z Axis up little to prevent scratching of Heat Bed
G1 X5 Y20 Z0.3 F5000.0 ; Move over to prevent blob squish
G92 E0
G92 E0
G1 F2700 E-5
;LAYER_COUNT:62
;LAYER:0
M107
G0 F6000 X125.296 Y86.143 Z0.2
;TYPE:SKIRT
G1 F2700 E0
G1 F1200 X126.026 Y86.301 E0.02484
G1 X126.155 Y86.334 E0.02927
G1 X126.773 Y86.513 E0.05067
G1 X128.048 Y86.931 E0.0953
G1 X128.488 Y87.088 E0.11084
G1 X128.907 Y87.248 E0.12575
G1 X130.142 Y87.751 E0.17011
G1 X130.733 Y88.01 E0.19157
G1 X130.979 Y88.124 E0.20059
G1 X132.031 Y88.635 E0.23948
G1 X132.912 Y89.099 E0.2726
G1 X133.519 Y89.443 E0.29581
G1 X134.734 Y90.183 E0.34312
G1 X135.186 Y90.477 E0.36106
G1 X135.51 Y90.696 E0.37407
G1 X136.229 Y91.204 E0.40335
G1 X136.498 Y91.402 E0.41446
G1 X137.344 Y92.048 E0.44986
G1 X137.605 Y92.259 E0.46102
G1 X137.887 Y92.495 E0.47325
G1 X138.971 Y93.438 E0.52104
G1 X139.13 Y93.587 E0.52829
G1 X139.133 Y93.583 E0.52845
G1 X139.379 Y93.806 E0.5395
G1 X139.74 Y94.151 E0.5561
G1 X140.544 Y94.961 E0.59406
G1 X140.976 Y95.421 E0.61505
G1 X141.508 Y96.021 E0.64172
G1 X141.912 Y96.485 E0.66219
G1 X142.139 Y96.755 E0.67392
G1 X142.445 Y97.132 E0.69007
G1 X142.658 Y97.404 E0.70156
G1 X143.091 Y97.976 E0.72542
G1 X143.324 Y98.297 E0.73861
G1 X144.284 Y99.677 E0.79453
G1 X144.306 Y99.71 E0.79584
G1 X144.515 Y100.037 E0.80875
G1 X145.014 Y100.851 E0.84051
G1 X145.229 Y101.219 E0.85468
G1 X145.612 Y101.914 E0.88108
G1 X145.946 Y102.55 E0.90497
G1 X146.107 Y102.87 E0.91688
G1 X146.601 Y103.907 E0.95509
G1 X146.915 Y104.626 E0.98118
G1 X147.24 Y105.421 E1.00975
G1 X147.389 Y105.811 E1.02364
G1 X147.66 Y106.56 E1.05013
G1 X147.774 Y106.891 E1.06177
G1 X148.232 Y108.354 E1.11276
G1 X148.367 Y108.842 E1.1296
G1 X148.444 Y109.14 E1.13984
G1 X148.632 Y109.926 E1.16672
G1 X148.809 Y110.753 E1.19485
G1 X148.861 Y111.061 E1.20524
G1 X148.869 Y111.059 E1.20551
G1 X148.986 Y111.701 E1.22721
G1 X149.05 Y112.098 E1.24059
G1 X149.168 Y112.93 E1.26854
G1 X149.211 Y113.271 E1.27997
G1 X149.305 Y114.145 E1.30921
G1 X149.334 Y114.462 E1.31979
G1 X149.375 Y115.001 E1.33777
G1 X149.395 Y115.338 E1.349
G1 X149.431 Y116.178 E1.37697
G1 X149.439 Y116.51 E1.38801
G1 X149.444 Y116.996 E1.40418
G1 X149.441 Y117.387 E1.41718
G1 X149.432 Y117.71 E1.42793
G1 X149.427 Y118.071 E1.43994
G1 X149.41 Y118.538 E1.45548
G1 X149.364 Y119.311 E1.48124
G1 X149.339 Y119.64 E1.49221
G1 X149.254 Y120.563 E1.52304
G1 X149.205 Y120.997 E1.53757
G1 X149.124 Y121.595 E1.55764
G1 X149.074 Y121.92 E1.56857
G1 X148.892 Y122.981 E1.60438
G1 X148.787 Y123.514 E1.62245
G1 X148.772 Y123.511 E1.62296
G1 X148.706 Y123.89 E1.63575
G1 X148.497 Y124.774 E1.66596
G1 X148.412 Y125.108 E1.67743
G1 X148.176 Y125.958 E1.70677
G1 X147.868 Y126.969 E1.74192
G1 X147.761 Y127.3 E1.75349
G1 X147.598 Y127.776 E1.77022
G1 X147.48 Y128.102 E1.78175
G1 X147.08 Y129.14 E1.81875
G1 X146.885 Y129.61 E1.83568
G1 X146.715 Y129.996 E1.84971
G1 X146.448 Y130.582 E1.87112
G1 X146.249 Y131.005 E1.88667
G1 X145.925 Y131.651 E1.91071
G1 X145.744 Y131.974 E1.92302
G1 X145.752 Y131.978 E1.92332
G1 X145.327 Y132.754 E1.95275
G1 X145.141 Y133.079 E1.9652
G1 X144.565 Y134.035 E2.00232
G1 X144.16 Y134.668 E2.02732
G1 X143.985 Y134.932 E2.03785
G1 X143.638 Y135.439 E2.05829
G1 X143.445 Y135.712 E2.06941
G1 X143.084 Y136.204 E2.0897
G1 X142.868 Y136.487 E2.10155
G1 X142.19 Y137.343 E2.13786
G1 X141.941 Y137.645 E2.15088
G1 X141.422 Y138.243 E2.17722
G1 X140.821 Y138.902 E2.20688
G1 X140.591 Y139.145 E2.21801
G1 X139.848 Y139.902 E2.25329
G1 X139.413 Y140.322 E2.2734
G1 X139.156 Y140.561 E2.28508
G1 X138.301 Y141.326 E2.32323
G1 X137.677 Y141.846 E2.35025
G1 X136.95 Y142.42 E2.38106
G1 X136.695 Y142.613 E2.3917
G1 X135.786 Y143.272 E2.42904
G1 X135.279 Y143.62 E2.44949
G1 X134.951 Y143.836 E2.46255
G1 X134.23 Y144.291 E2.49091
G1 X133.951 Y144.461 E2.50178
G1 X133.498 Y144.727 E2.51925
G1 X133.239 Y144.873 E2.52914
G1 X132.543 Y145.259 E2.55561
G1 X132.129 Y145.476 E2.57115
G1 X131.48 Y145.798 E2.59525
G1 X131.159 Y145.951 E2.60708
G1 X130.226 Y146.374 E2.64115
G1 X129.898 Y146.516 E2.65304
G1 X129.473 Y146.691 E2.66833
G1 X129.165 Y146.812 E2.67933
G1 X128.19 Y147.177 E2.71396
G1 X127.885 Y147.285 E2.72472
G1 X127.507 Y147.413 E2.73799
G1 X127.155 Y147.525 E2.75028
G1 X126.298 Y147.781 E2.78003
G1 X125.967 Y147.874 E2.79146
G1 X125.1 Y148.097 E2.82124
G1 X124.036 Y148.342 E2.85755
G1 X123.693 Y148.405 E2.86915
G1 X123.695 Y148.413 E2.86943
G1 X123.253 Y148.499 E2.8844
G1 X122.92 Y148.558 E2.89565
G1 X121.991 Y148.707 E2.92694
G1 X121.57 Y148.766 E2.94108
G1 X121.146 Y148.815 E2.95528
G1 X120.399 Y148.89 E2.98025
G1 X119.644 Y148.95 E3.00544
G1 X119.024 Y148.985 E3.0261
G1 X118.646 Y148.999 E3.03868
G1 X117.662 Y149.018 E3.07141
G1 X117.302 Y149.019 E3.08338
G1 X116.322 Y148.999 E3.11599
G1 X115.716 Y148.972 E3.13616
G1 X115.368 Y148.95 E3.14776
G1 X114.236 Y148.856 E3.18554
G1 X113.727 Y148.799 E3.20257
G1 X112.604 Y148.644 E3.24028
G1 X112.186 Y148.577 E3.25436
G1 X111.381 Y148.43 E3.28158
G1 X111.052 Y148.364 E3.29274
G1 X110.397 Y148.222 E3.31503
G1 X110.039 Y148.138 E3.32726
G1 X109.117 Y147.903 E3.35891
G1 X108.739 Y147.799 E3.37195
G1 X107.971 Y147.568 E3.39862
G1 X107.238 Y147.329 E3.42426
G1 X106.908 Y147.215 E3.43587
G1 X106.285 Y146.988 E3.45793
G1 X105.948 Y146.858 E3.46994
G1 X105.106 Y146.517 E3.50016
G1 X104.752 Y146.366 E3.51296
G1 X104.047 Y146.049 E3.53867
G1 X103.777 Y145.922 E3.54859
G1 X103.233 Y145.658 E3.5687
G1 X102.926 Y145.503 E3.58014
G1 X101.784 Y144.893 E3.6232
G1 X101.175 Y144.538 E3.64665
G1 X100.902 Y144.373 E3.65726
G1 X100.135 Y143.892 E3.68737
G1 X99.838 Y143.699 E3.69915
G1 X99.326 Y143.349 E3.71978
G1 X98.63 Y142.852 E3.74822
G1 X98.355 Y142.648 E3.75961
G1 X97.458 Y141.955 E3.79731
G1 X97.126 Y141.684 E3.81157
G1 X96.872 Y141.469 E3.82264
G1 X96.026 Y140.726 E3.86008
G1 X95.547 Y140.284 E3.88176
G1 X95.277 Y140.026 E3.89418
G1 X95.06 Y139.811 E3.90434
G1 X94.308 Y139.042 E3.94012
G1 X93.918 Y138.623 E3.95916
G1 X93.65 Y138.324 E3.97251
G1 X92.854 Y137.391 E4.0133
G1 X92.512 Y136.966 E4.03145
G1 X92.312 Y136.708 E4.0423
G1 X91.622 Y135.792 E4.08045
G1 X91.625 Y135.789 E4.08059
G1 X91.392 Y135.476 E4.09357
G1 X90.893 Y134.752 E4.12281
G1 X90.591 Y134.29 E4.14117
G1 X90.275 Y133.777 E4.16121
G1 X90.274 Y133.776 E4.16126
G1 X89.849 Y133.066 E4.18878
G1 X89.672 Y132.757 E4.20062
G1 X89.267 Y132.017 E4.22868
G1 X88.932 Y131.368 E4.25297
G1 X88.78 Y131.06 E4.2644
G1 X88.317 Y130.076 E4.30057
G1 X88.194 Y129.798 E4.31068
G1 X88.056 Y129.471 E4.32248
G1 X87.625 Y128.389 E4.36122
G1 X87.537 Y128.148 E4.36975
G1 X87.269 Y127.391 E4.39646
G1 X87.166 Y127.085 E4.4072
G1 X86.917 Y126.304 E4.43446
G1 X86.792 Y125.88 E4.44917
G1 X86.501 Y124.791 E4.48666
G1 X86.372 Y124.248 E4.50522
G1 X86.322 Y123.987 E4.51406
G1 X86.315 Y123.989 E4.5143
G1 X86.159 Y123.247 E4.53952
G1 X86.089 Y122.88 E4.55195
G1 X85.987 Y122.288 E4.57193
G1 X85.934 Y121.944 E4.5835
G1 X85.835 Y121.223 E4.60771
G1 X85.795 Y120.894 E4.61873
G1 X85.674 Y119.735 E4.65749
G1 X85.643 Y119.382 E4.66928
G1 X85.611 Y118.921 E4.68465
G1 X85.594 Y118.585 E4.69584
G1 X85.568 Y117.869 E4.71967
G1 X85.561 Y117.524 E4.73114
G1 X85.56 Y117.111 E4.74488
G1 X85.598 Y116.208 E4.77494
G1 X85.715 Y115.313 E4.80496
G1 X85.911 Y114.431 E4.83501
G1 X86.185 Y113.571 E4.86503
G1 X86.533 Y112.738 E4.89506
G1 X86.954 Y111.938 E4.92513
G1 X87.444 Y111.18 E4.95515
G1 X87.999 Y110.467 E4.9852
G1 X88.615 Y109.807 E5.01523
G1 X89.287 Y109.203 E5.04528
G1 X90.009 Y108.662 E5.07529
G1 X91.001 Y108.064 E5.11381
G1 X93.365 Y106.817 E5.20271
G1 X95.57 Y105.573 E5.28691
G1 X97.753 Y104.259 E5.37166
G1 X99.898 Y102.885 E5.45638
G1 X101.99 Y101.458 E5.54061
G1 X104.047 Y99.968 E5.62509
G1 X106.078 Y98.409 E5.71024
G1 X108.015 Y96.832 E5.79332
G1 X109.953 Y95.16 E5.87845
G1 X111.825 Y93.452 E5.96274
G1 X113.642 Y91.696 E6.04678
G1 X115.224 Y90.056 E6.12257
G1 X116.202 Y89.055 E6.16912
G1 X116.861 Y88.437 E6.19916
G1 X117.572 Y87.881 E6.22918
G1 X118.33 Y87.389 E6.25924
G1 X119.128 Y86.966 E6.28928
G1 X119.96 Y86.616 E6.3193
G1 X120.821 Y86.341 E6.34936
G1 X121.702 Y86.142 E6.3794
G1 X122.597 Y86.023 E6.40943
G1 X123.499 Y85.983 E6.43946
G1 X124.401 Y86.023 E6.46949
G1 X125.296 Y86.143 E6.49953
G0 F6000 X125.173 Y85.716
G1 F1200 X126.125 Y85.914 E6.53187
G1 X126.254 Y85.947 E6.5363
G1 X126.897 Y86.133 E6.55856
G1 X127.89 Y86.455 E6.59328
G1 X128.182 Y86.555 E6.60355
G1 X128.622 Y86.712 E6.61909
G1 X129.058 Y86.878 E6.6346
G1 X130.293 Y87.381 E6.67896
G1 X130.897 Y87.645 E6.70088
G1 X131.152 Y87.763 E6.71023
G1 X131.913 Y88.129 E6.73831
G1 X132.216 Y88.281 E6.74959
G1 X133.107 Y88.75 E6.78308
G1 X133.725 Y89.1 E6.8067
G1 X134.952 Y89.847 E6.85448
G1 X135.404 Y90.141 E6.87241
G1 X135.741 Y90.37 E6.88596
G1 X136.46 Y90.878 E6.91524
G1 X136.74 Y91.083 E6.92678
G1 X137.328 Y91.528 E6.95131
G1 X137.595 Y91.737 E6.96259
G1 X137.856 Y91.948 E6.97375
G1 X138.149 Y92.194 E6.98648
G1 X139.233 Y93.137 E7.03426
G1 X139.398 Y93.291 E7.04177
G1 X139.401 Y93.287 E7.04194
G1 X139.647 Y93.51 E7.05298
G1 X140.023 Y93.868 E7.07025
G1 X140.836 Y94.688 E7.10865
G1 X141.268 Y95.148 E7.12964
G1 X141.779 Y95.723 E7.15523
G1 X142.213 Y96.222 E7.17722
G1 X142.449 Y96.503 E7.18943
G1 X142.755 Y96.88 E7.20558
G1 X142.977 Y97.162 E7.21751
G1 X143.41 Y97.734 E7.24138
G1 X143.652 Y98.068 E7.25509
G1 X144.617 Y99.455 E7.31129
G1 X144.639 Y99.488 E7.31261
G1 X144.856 Y99.828 E7.32603
G1 X145.355 Y100.642 E7.35778
G1 X145.579 Y101.024 E7.37251
G1 X145.967 Y101.728 E7.39925
G1 X146.301 Y102.364 E7.42314
G1 X146.468 Y102.696 E7.4355
G1 X146.825 Y103.438 E7.46289
G1 X146.966 Y103.745 E7.47412
G1 X147.285 Y104.475 E7.50062
G1 X147.61 Y105.27 E7.52919
G1 X147.766 Y105.675 E7.54362
G1 X148.037 Y106.424 E7.57012
G1 X148.155 Y106.768 E7.58221
G1 X148.565 Y108.064 E7.62742
G1 X148.833 Y109.045 E7.66125
G1 X149.023 Y109.843 E7.68853
G1 X149.2 Y110.67 E7.71666
G1 X149.254 Y110.989 E7.72742
G1 X149.262 Y110.988 E7.72769
G1 X149.379 Y111.63 E7.74939
G1 X149.446 Y112.042 E7.76328
G1 X149.564 Y112.874 E7.79122
G1 X149.608 Y113.228 E7.80309
G1 X149.702 Y114.102 E7.83233
G1 X149.732 Y114.432 E7.84335
G1 X149.773 Y114.971 E7.86133
G1 X149.794 Y115.321 E7.87299
G1 X149.83 Y116.161 E7.90095
G1 X149.839 Y116.506 E7.91243
G1 X149.844 Y116.992 E7.9286
G1 X149.841 Y117.398 E7.9421
G1 X149.827 Y118.077 E7.96469
G1 X149.809 Y118.562 E7.98083
G1 X149.763 Y119.335 E8.00659
G1 X149.737 Y119.677 E8.01799
G1 X149.652 Y120.6 E8.04882
G1 X149.601 Y121.051 E8.06392
G1 X149.52 Y121.649 E8.08399
G1 X149.469 Y121.986 E8.09533
G1 X149.284 Y123.059 E8.13154
G1 X149.179 Y123.592 E8.14961
G1 X149.175 Y123.591 E8.14975
G1 X149.096 Y123.982 E8.16301
G1 X148.887 Y124.866 E8.19323
G1 X148.798 Y125.213 E8.20514
G1 X148.559 Y126.074 E8.23486
G1 X148.251 Y127.085 E8.27001
G1 X148.139 Y127.43 E8.28208
G1 X147.976 Y127.906 E8.29881
G1 X147.854 Y128.244 E8.31076
G1 X147.45 Y129.293 E8.34815
G1 X147.255 Y129.763 E8.36508
G1 X147.078 Y130.165 E8.37969
G1 X146.814 Y130.745 E8.40088
G1 X146.606 Y131.184 E8.41704
G1 X146.282 Y131.83 E8.44107
G1 X146.095 Y132.166 E8.45386
G1 X146.103 Y132.17 E8.45416
G1 X145.678 Y132.946 E8.48359
G1 X145.484 Y133.284 E8.49655
G1 X144.902 Y134.251 E8.53409
G1 X144.497 Y134.884 E8.55908
G1 X144.315 Y135.158 E8.57002
G1 X143.968 Y135.665 E8.59046
G1 X143.767 Y135.949 E8.60203
G1 X143.406 Y136.441 E8.62233
G1 X143.182 Y136.735 E8.63462
G1 X142.503 Y137.591 E8.67096
G1 X142.245 Y137.905 E8.68448
G1 X141.932 Y138.27 E8.70047
G1 X141.717 Y138.513 E8.71126
G1 X141.116 Y139.172 E8.74093
G1 X140.878 Y139.424 E8.75246
G1 X140.126 Y140.19 E8.78816
G1 X139.691 Y140.61 E8.80827
G1 X139.424 Y140.859 E8.82041
G1 X138.797 Y141.424 E8.84848
G1 X138.087 Y142.028 E8.87949
G1 X137.925 Y142.159 E8.88642
G1 X137.197 Y142.735 E8.91729
G1 X136.931 Y142.936 E8.92838
G1 X136.272 Y143.418 E8.95554
G1 X136.013 Y143.601 E8.96608
G1 X135.506 Y143.949 E8.98654
G1 X135.164 Y144.174 E9.00015
G1 X134.443 Y144.629 E9.02851
G1 X134.153 Y144.806 E9.03981
G1 X133.7 Y145.072 E9.05728
G1 X133.432 Y145.222 E9.0675
G1 X133.433 Y145.223 E9.06754
G1 X132.737 Y145.609 E9.09402
G1 X132.307 Y145.835 E9.11017
G1 X131.658 Y146.157 E9.13427
G1 X131.324 Y146.315 E9.14656
G1 X130.391 Y146.738 E9.18063
G1 X130.05 Y146.886 E9.19299
G1 X129.625 Y147.061 E9.20828
G1 X129.305 Y147.186 E9.21971
G1 X128.014 Y147.664 E9.26549
G1 X127.636 Y147.792 E9.27877
G1 X127.27 Y147.909 E9.29155
G1 X126.413 Y148.165 E9.3213
G1 X126.069 Y148.261 E9.33318
G1 X125.19 Y148.487 E9.36336
G1 X124.126 Y148.732 E9.39968
G1 X123.769 Y148.798 E9.41175
G1 X123.771 Y148.806 E9.41203
G1 X123.329 Y148.892 E9.427
G1 X122.984 Y148.953 E9.43866
G1 X122.055 Y149.102 E9.46995
G1 X121.617 Y149.163 E9.48466
G1 X121.187 Y149.213 E9.49906
G1 X120.433 Y149.289 E9.52426
G1 X119.666 Y149.349 E9.54985
G1 X119.046 Y149.384 E9.5705
G1 X118.654 Y149.399 E9.58355
G1 X117.67 Y149.418 E9.61629
G1 X117.296 Y149.419 E9.62872
G1 X116.607 Y149.408 E9.65164
G1 X116.304 Y149.398 E9.66173
G1 X115.698 Y149.371 E9.6819
G1 X115.337 Y149.349 E9.69393
G1 X114.538 Y149.286 E9.72059
G1 X114.191 Y149.253 E9.73218
G1 X113.682 Y149.196 E9.74922
G1 X113.301 Y149.146 E9.762
G1 X113.298 Y149.146 E9.7621
G1 X112.548 Y149.041 E9.78729
G1 X112.114 Y148.971 E9.80191
G1 X111.309 Y148.824 E9.82913
G1 X110.967 Y148.755 E9.84073
G1 X110.312 Y148.613 E9.86302
G1 X109.94 Y148.526 E9.87573
G1 X109.018 Y148.291 E9.90737
G1 X108.625 Y148.182 E9.92094
G1 X107.847 Y147.948 E9.94796
G1 X107.114 Y147.709 E9.9736
G1 X106.771 Y147.59 E9.98568
G1 X106.148 Y147.363 E10.00773
G1 X105.798 Y147.229 E10.0202
G1 X104.956 Y146.888 E10.05041
G1 X104.588 Y146.731 E10.06372
G1 X103.883 Y146.414 E10.08943
G1 X103.602 Y146.282 E10.09975
G1 X103.058 Y146.018 E10.11987
G1 X102.739 Y145.857 E10.13175
G1 X101.447 Y145.161 E10.18056
G1 X100.973 Y144.884 E10.19882
G1 X100.689 Y144.712 E10.20986
G1 X99.922 Y144.231 E10.23998
G1 X99.614 Y144.03 E10.25221
G1 X99.094 Y143.674 E10.27317
G1 X98.398 Y143.177 E10.30161
G1 X98.111 Y142.965 E10.31348
G1 X97.205 Y142.265 E10.35156
G1 X96.873 Y141.994 E10.36582
G1 X96.609 Y141.771 E10.37731
G1 X95.755 Y141.021 E10.41511
G1 X95.271 Y140.573 E10.43705
G1 X95.001 Y140.315 E10.44947
G1 X94.775 Y140.092 E10.46003
G1 X94.015 Y139.315 E10.49618
G1 X93.625 Y138.896 E10.51522
G1 X93.347 Y138.585 E10.52909
G1 X92.764 Y137.907 E10.55883
G1 X92.543 Y137.641 E10.57034
G1 X91.992 Y136.949 E10.59976
G1 X91.302 Y136.033 E10.6379
G1 X91.311 Y136.026 E10.63828
G1 X91.063 Y135.705 E10.65177
G1 X90.558 Y134.971 E10.6814
G1 X90.256 Y134.509 E10.69976
G1 X89.932 Y133.983 E10.72031
G1 X89.931 Y133.981 E10.72038
G1 X89.506 Y133.271 E10.7479
G1 X89.322 Y132.951 E10.76018
G1 X88.912 Y132.2 E10.78864
G1 X88.577 Y131.551 E10.81293
G1 X88.419 Y131.232 E10.82477
G1 X87.951 Y130.238 E10.86131
G1 X87.828 Y129.96 E10.87142
G1 X87.685 Y129.62 E10.88369
G1 X87.252 Y128.532 E10.92264
G1 X87.16 Y128.282 E10.9315
G1 X86.892 Y127.525 E10.95821
G1 X86.785 Y127.207 E10.96937
G1 X86.536 Y126.426 E10.99663
G1 X86.406 Y125.985 E11.01193
G1 X86.196 Y125.212 E11.03857
G1 X86.112 Y124.883 E11.04986
G1 X85.983 Y124.34 E11.06842
G1 X85.931 Y124.07 E11.07757
G1 X85.924 Y124.071 E11.0778
G1 X85.768 Y123.329 E11.10302
G1 X85.695 Y122.948 E11.11593
G1 X85.593 Y122.356 E11.13591
G1 X85.538 Y121.998 E11.14795
G1 X85.397 Y120.936 E11.18358
G1 X85.276 Y119.777 E11.22234
G1 X85.244 Y119.41 E11.2346
G1 X85.212 Y118.949 E11.24997
G1 X85.194 Y118.6 E11.26159
